
; ### Ellis' Pressure Advance / Linear Advance Calibration Tool ###
;
; Original Marlin linear advance calibration tool by Sineos [https://github.com/Sineos]
; Heavily modified/rewritten by Andrew Ellis [https://github.com/AndrewEllis93]
;
; -------------------------------------------
; Generated: Fri Jun 19 2026 12:27:35 GMT-0500 (Central Daylight Time)
; -------------------------------------------
;
; Advanced Mode: false
;
; Printer:
;  - Firmware: klipper
;  - Bed Shape: Rect
;  - Bed Size X: 650 mm
;  - Bed Size Y: 305 mm
;  - Origin Bed Center: false
;  - Travel Speed: 120 mm/s
;  - Nozzle Diameter: 0.4 mm
;  - Filament Diameter: 1.75 mm
;  - Extrusion Multiplier: 0.98
;
; Retraction / Z Hop:
;  - Retraction Distance: 0.5 mm
;  - Retract Speed: 35 mm/s
;  - Unretract Speed: 35 mm/s
;  - Z Hop Enable: true
;  - Z Hop Height: 0.1mm
;
; First Layer Settings:
;  - First Layer Height: 0.25 mm
;  - First Layer Printing Speed: 30 mm/s
;  - First Layer Fan Speed: 0%
;  - Anchor Option: anchor_frame
;
; Print Settings:
;  - Layer Height: 0.2 mm
;  - Print Speed: 100 mm/s
;  - Acceleration: Disabled
;  - Fan Speed: 100%
;
; Pressure Advance Stepping:
;  - PA Start Value: 0
;  - PA End Value: 0.08
;  - PA Increment: 0.005
;
; Start / End G-code:
;  - Hotend Temp: 200C
;  - Bed Temp: 60C
;  - Don't Add G28: false
;  - Don't Add Heating G-Codes: false
;  - Entered Start G-code: 
;       G28 ; Home all axes
;       M190 S60 ; Set & wait for bed temp
;       M109 S200 ; Set & wait for hotend temp
;       PRINT_START ; Start macro
;       ; START_PRINT ; Start macro (alternate / official start macro name)
;  - Entered End G-code: 
;       PRINT_END ; End macro. Change name to match yours
;
; Calculated Values:
;  - Print Size X: 84.72 mm
;  - Print Size Y: 53.99 mm
;  - Number of Patterns to Print: 17
;  - PA Values: 0, 0.005, 0.01, 0.015, 0.02, 0.025, 0.03, 0.035, 0.04, 0.045, 0.05, 0.055, 0.06, 0.065, 0.07, 0.075, 0.08
;
; Prepare printing
;
G28 ; Home all axes
M190 S60 ; Set & wait for bed temp
M109 S200 ; Set & wait for hotend temp
PRINT_START ; Start macro
; START_PRINT ; Start macro (alternate / official start macro name)
G21 ; Millimeter units
G90 ; Absolute XYZ
M83 ; Relative E
G92 E0 ; Reset extruder distance
;
;  Begin printing
;
M106 S0 ; Set fan speed
G1 E-0.5 F2100 ; Retract
G0 Z5 F7200 ; Z raise
G0 X282.6417 Y125.5068 F7200 ; Move to start position
G0 Z0.25 F7200 ; Move to start layer height
G1 E0.5 F2100 ; Un-retract
SET_PRESSURE_ADVANCE ADVANCE=0 ; Set pressure advance to start value
M117 PA 0
G1 X282.6417 Y167.9332 E2.1882 F1800 ; Draw perimeter (up)
G1 X367.3583 Y167.9332 E4.36937 F1800 ; Draw perimeter (right)
G1 X367.3583 Y125.5068 E2.1882 F1800 ; Draw perimeter (down)
G1 X282.6417 Y125.5068 E4.36937 F1800 ; Draw perimeter (left)
G0 X283.148 Y126.0131 F7200 ; Step inwards to print next perimeter
G1 X283.148 Y167.4269 E2.13597 F1800 ; Draw perimeter (up)
G1 X366.852 Y167.4269 E4.31714 F1800 ; Draw perimeter (right)
G1 X366.852 Y126.0131 E2.13597 F1800 ; Draw perimeter (down)
G1 X283.148 Y126.0131 E4.31714 F1800 ; Draw perimeter (left)
G0 X283.6544 Y126.5195 F7200 ; Step inwards to print next perimeter
G1 X283.6544 Y166.9205 E2.08374 F1800 ; Draw perimeter (up)
G1 X366.3456 Y166.9205 E4.26491 F1800 ; Draw perimeter (right)
G1 X366.3456 Y126.5195 E2.08374 F1800 ; Draw perimeter (down)
G1 X283.6544 Y126.5195 E4.26491 F1800 ; Draw perimeter (left)
G0 X284.1607 Y127.0258 F7200 ; Step inwards to print next perimeter
G1 X284.1607 Y166.4142 E2.0315 F1800 ; Draw perimeter (up)
G1 X365.8393 Y166.4142 E4.21268 F1800 ; Draw perimeter (right)
G1 X365.8393 Y127.0258 E2.0315 F1800 ; Draw perimeter (down)
G1 X284.1607 Y127.0258 E4.21268 F1800 ; Draw perimeter (left)
G1 E-0.5 F2100 ; Retract
G1 Z0.35 F7200 ; Z hop
G0 X282.6417 Y168.4396 F7200 ; Move to box start
G1 Z0.25 F7200 ; Z hop return
G1 E0.5 F2100 ; Un-retract
G1 X282.6417 Y179.9459 E0.59346 F1800 ; Draw perimeter (up)
G1 X346.8962 Y179.9459 E3.31401 F1800 ; Draw perimeter (right)
G1 X346.8962 Y168.4396 E0.59346 F1800 ; Draw perimeter (down)
G1 X282.6417 Y168.4396 E3.31401 F1800 ; Draw perimeter (left)
G0 X283.148 Y168.9459 F7200 ; Step inwards to print next perimeter
G1 X283.148 Y179.4396 E0.54122 F1800 ; Draw perimeter (up)
G1 X346.3898 Y179.4396 E3.26178 F1800 ; Draw perimeter (right)
G1 X346.3898 Y168.9459 E0.54122 F1800 ; Draw perimeter (down)
G1 X283.148 Y168.9459 E3.26178 F1800 ; Draw perimeter (left)
G0 X283.6544 Y169.4523 F7200 ; Step inwards to print next perimeter
G1 X283.6544 Y178.9332 E0.48899 F1800 ; Draw perimeter (up)
G1 X345.8835 Y178.9332 E3.20955 F1800 ; Draw perimeter (right)
G1 X345.8835 Y169.4523 E0.48899 F1800 ; Draw perimeter (down)
G1 X283.6544 Y169.4523 E3.20955 F1800 ; Draw perimeter (left)
G0 X284.1607 Y169.9586 F7200 ; Step inwards to print next perimeter
G1 X284.1607 Y178.4269 E0.43676 F1800 ; Draw perimeter (up)
G1 X345.3771 Y178.4269 E3.15732 F1800 ; Draw perimeter (right)
G1 X345.3771 Y169.9586 E0.43676 F1800 ; Draw perimeter (down)
G1 X284.1607 Y169.9586 E3.15732 F1800 ; Draw perimeter (left)
G0 X284.5341 Y170.3319 F7200 ; Move to fill start
G0 X285.2502 Y170.3319 F7200 ; Move
G1 X284.5341 Y171.048 E0.05223 F1800 ; Fill
G0 X284.5341 Y171.7641 F7200 ; Move
G1 X285.9663 Y170.3319 E0.10446 F1800 ; Fill
G0 X286.6823 Y170.3319 F7200 ; Move
G1 X284.5341 Y172.4802 E0.15669 F1800 ; Fill
G0 X284.5341 Y173.1963 F7200 ; Move
G1 X287.3984 Y170.3319 E0.20893 F1800 ; Fill
G0 X288.1145 Y170.3319 F7200 ; Move
G1 X284.5341 Y173.9124 E0.26116 F1800 ; Fill
G0 X284.5341 Y174.6285 F7200 ; Move
G1 X288.8306 Y170.3319 E0.31339 F1800 ; Fill
G0 X289.5467 Y170.3319 F7200 ; Move
G1 X284.5341 Y175.3445 E0.36562 F1800 ; Fill
G0 X284.5341 Y176.0606 F7200 ; Move
G1 X290.2628 Y170.3319 E0.41785 F1800 ; Fill
G0 X290.9789 Y170.3319 F7200 ; Move
G1 X284.5341 Y176.7767 E0.47008 F1800 ; Fill
G0 X284.5341 Y177.4928 F7200 ; Move
G1 X291.6949 Y170.3319 E0.52231 F1800 ; Fill
G0 X292.411 Y170.3319 F7200 ; Move
G1 X284.6894 Y178.0535 E0.56321 F1800 ; Fill
G0 X285.4055 Y178.0535 F7200 ; Move
G1 X293.1271 Y170.3319 E0.56321 F1800 ; Fill
G0 X293.8432 Y170.3319 F7200 ; Move
G1 X286.1216 Y178.0535 E0.56321 F1800 ; Fill
G0 X286.8377 Y178.0535 F7200 ; Move
G1 X294.5593 Y170.3319 E0.56321 F1800 ; Fill
G0 X295.2754 Y170.3319 F7200 ; Move
G1 X287.5538 Y178.0535 E0.56321 F1800 ; Fill
G0 X288.2699 Y178.0535 F7200 ; Move
G1 X295.9915 Y170.3319 E0.56321 F1800 ; Fill
G0 X296.7076 Y170.3319 F7200 ; Move
G1 X288.986 Y178.0535 E0.56321 F1800 ; Fill
G0 X289.7021 Y178.0535 F7200 ; Move
G1 X297.4236 Y170.3319 E0.56321 F1800 ; Fill
G0 X298.1397 Y170.3319 F7200 ; Move
G1 X290.4181 Y178.0535 E0.56321 F1800 ; Fill
G0 X291.1342 Y178.0535 F7200 ; Move
G1 X298.8558 Y170.3319 E0.56321 F1800 ; Fill
G0 X299.5719 Y170.3319 F7200 ; Move
G1 X291.8503 Y178.0535 E0.56321 F1800 ; Fill
G0 X292.5664 Y178.0535 F7200 ; Move
G1 X300.288 Y170.3319 E0.56321 F1800 ; Fill
G0 X301.0041 Y170.3319 F7200 ; Move
G1 X293.2825 Y178.0535 E0.56321 F1800 ; Fill
G0 X293.9986 Y178.0535 F7200 ; Move
G1 X301.7202 Y170.3319 E0.56321 F1800 ; Fill
G0 X302.4362 Y170.3319 F7200 ; Move
G1 X294.7147 Y178.0535 E0.56321 F1800 ; Fill
G0 X295.4307 Y178.0535 F7200 ; Move
G1 X303.1523 Y170.3319 E0.56321 F1800 ; Fill
G0 X303.8684 Y170.3319 F7200 ; Move
G1 X296.1468 Y178.0535 E0.56321 F1800 ; Fill
G0 X296.8629 Y178.0535 F7200 ; Move
G1 X304.5845 Y170.3319 E0.56321 F1800 ; Fill
G0 X305.3006 Y170.3319 F7200 ; Move
G1 X297.579 Y178.0535 E0.56321 F1800 ; Fill
G0 X298.2951 Y178.0535 F7200 ; Move
G1 X306.0167 Y170.3319 E0.56321 F1800 ; Fill
G0 X306.7328 Y170.3319 F7200 ; Move
G1 X299.0112 Y178.0535 E0.56321 F1800 ; Fill
G0 X299.7273 Y178.0535 F7200 ; Move
G1 X307.4488 Y170.3319 E0.56321 F1800 ; Fill
G0 X308.1649 Y170.3319 F7200 ; Move
G1 X300.4433 Y178.0535 E0.56321 F1800 ; Fill
G0 X301.1594 Y178.0535 F7200 ; Move
G1 X308.881 Y170.3319 E0.56321 F1800 ; Fill
G0 X309.5971 Y170.3319 F7200 ; Move
G1 X301.8755 Y178.0535 E0.56321 F1800 ; Fill
G0 X302.5916 Y178.0535 F7200 ; Move
G1 X310.3132 Y170.3319 E0.56321 F1800 ; Fill
G0 X311.0293 Y170.3319 F7200 ; Move
G1 X303.3077 Y178.0535 E0.56321 F1800 ; Fill
G0 X304.0238 Y178.0535 F7200 ; Move
G1 X311.7454 Y170.3319 E0.56321 F1800 ; Fill
G0 X312.4615 Y170.3319 F7200 ; Move
G1 X304.7399 Y178.0535 E0.56321 F1800 ; Fill
G0 X305.456 Y178.0535 F7200 ; Move
G1 X313.1775 Y170.3319 E0.56321 F1800 ; Fill
G0 X313.8936 Y170.3319 F7200 ; Move
G1 X306.172 Y178.0535 E0.56321 F1800 ; Fill
G0 X306.8881 Y178.0535 F7200 ; Move
G1 X314.6097 Y170.3319 E0.56321 F1800 ; Fill
G0 X315.3258 Y170.3319 F7200 ; Move
G1 X307.6042 Y178.0535 E0.56321 F1800 ; Fill
G0 X308.3203 Y178.0535 F7200 ; Move
G1 X316.0419 Y170.3319 E0.56321 F1800 ; Fill
G0 X316.758 Y170.3319 F7200 ; Move
G1 X309.0364 Y178.0535 E0.56321 F1800 ; Fill
G0 X309.7525 Y178.0535 F7200 ; Move
G1 X317.4741 Y170.3319 E0.56321 F1800 ; Fill
G0 X318.1901 Y170.3319 F7200 ; Move
G1 X310.4686 Y178.0535 E0.56321 F1800 ; Fill
G0 X311.1846 Y178.0535 F7200 ; Move
G1 X318.9062 Y170.3319 E0.56321 F1800 ; Fill
G0 X319.6223 Y170.3319 F7200 ; Move
G1 X311.9007 Y178.0535 E0.56321 F1800 ; Fill
G0 X312.6168 Y178.0535 F7200 ; Move
G1 X320.3384 Y170.3319 E0.56321 F1800 ; Fill
G0 X321.0545 Y170.3319 F7200 ; Move
G1 X313.3329 Y178.0535 E0.56321 F1800 ; Fill
G0 X314.049 Y178.0535 F7200 ; Move
G1 X321.7706 Y170.3319 E0.56321 F1800 ; Fill
G0 X322.4867 Y170.3319 F7200 ; Move
G1 X314.7651 Y178.0535 E0.56321 F1800 ; Fill
G0 X315.4812 Y178.0535 F7200 ; Move
G1 X323.2027 Y170.3319 E0.56321 F1800 ; Fill
G0 X323.9188 Y170.3319 F7200 ; Move
G1 X316.1972 Y178.0535 E0.56321 F1800 ; Fill
G0 X316.9133 Y178.0535 F7200 ; Move
G1 X324.6349 Y170.3319 E0.56321 F1800 ; Fill
G0 X325.351 Y170.3319 F7200 ; Move
G1 X317.6294 Y178.0535 E0.56321 F1800 ; Fill
G0 X318.3455 Y178.0535 F7200 ; Move
G1 X326.0671 Y170.3319 E0.56321 F1800 ; Fill
G0 X326.7832 Y170.3319 F7200 ; Move
G1 X319.0616 Y178.0535 E0.56321 F1800 ; Fill
G0 X319.7777 Y178.0535 F7200 ; Move
G1 X327.4993 Y170.3319 E0.56321 F1800 ; Fill
G0 X328.2154 Y170.3319 F7200 ; Move
G1 X320.4938 Y178.0535 E0.56321 F1800 ; Fill
G0 X321.2099 Y178.0535 F7200 ; Move
G1 X328.9314 Y170.3319 E0.56321 F1800 ; Fill
G0 X329.6475 Y170.3319 F7200 ; Move
G1 X321.9259 Y178.0535 E0.56321 F1800 ; Fill
G0 X322.642 Y178.0535 F7200 ; Move
G1 X330.3636 Y170.3319 E0.56321 F1800 ; Fill
G0 X331.0797 Y170.3319 F7200 ; Move
G1 X323.3581 Y178.0535 E0.56321 F1800 ; Fill
G0 X324.0742 Y178.0535 F7200 ; Move
G1 X331.7958 Y170.3319 E0.56321 F1800 ; Fill
G0 X332.5119 Y170.3319 F7200 ; Move
G1 X324.7903 Y178.0535 E0.56321 F1800 ; Fill
G0 X325.5064 Y178.0535 F7200 ; Move
G1 X333.228 Y170.3319 E0.56321 F1800 ; Fill
G0 X333.944 Y170.3319 F7200 ; Move
G1 X326.2225 Y178.0535 E0.56321 F1800 ; Fill
G0 X326.9385 Y178.0535 F7200 ; Move
G1 X334.6601 Y170.3319 E0.56321 F1800 ; Fill
G0 X335.3762 Y170.3319 F7200 ; Move
G1 X327.6546 Y178.0535 E0.56321 F1800 ; Fill
G0 X328.3707 Y178.0535 F7200 ; Move
G1 X336.0923 Y170.3319 E0.56321 F1800 ; Fill
G0 X336.8084 Y170.3319 F7200 ; Move
G1 X329.0868 Y178.0535 E0.56321 F1800 ; Fill
G0 X329.8029 Y178.0535 F7200 ; Move
G1 X337.5245 Y170.3319 E0.56321 F1800 ; Fill
G0 X338.2406 Y170.3319 F7200 ; Move
G1 X330.519 Y178.0535 E0.56321 F1800 ; Fill
G0 X331.2351 Y178.0535 F7200 ; Move
G1 X338.9566 Y170.3319 E0.56321 F1800 ; Fill
G0 X339.6727 Y170.3319 F7200 ; Move
G1 X331.9511 Y178.0535 E0.56321 F1800 ; Fill
G0 X332.6672 Y178.0535 F7200 ; Move
G1 X340.3888 Y170.3319 E0.56321 F1800 ; Fill
G0 X341.1049 Y170.3319 F7200 ; Move
G1 X333.3833 Y178.0535 E0.56321 F1800 ; Fill
G0 X334.0994 Y178.0535 F7200 ; Move
G1 X341.821 Y170.3319 E0.56321 F1800 ; Fill
G0 X342.5371 Y170.3319 F7200 ; Move
G1 X334.8155 Y178.0535 E0.56321 F1800 ; Fill
G0 X335.5316 Y178.0535 F7200 ; Move
G1 X343.2532 Y170.3319 E0.56321 F1800 ; Fill
G0 X343.9693 Y170.3319 F7200 ; Move
G1 X336.2477 Y178.0535 E0.56321 F1800 ; Fill
G0 X336.9638 Y178.0535 F7200 ; Move
G1 X344.6853 Y170.3319 E0.56321 F1800 ; Fill
G0 X345.0038 Y170.7296 F7200 ; Move
G1 X337.6798 Y178.0535 E0.53421 F1800 ; Fill
G0 X338.3959 Y178.0535 F7200 ; Move
G1 X345.0038 Y171.4457 E0.48198 F1800 ; Fill
G0 X345.0038 Y172.1617 F7200 ; Move
G1 X339.112 Y178.0535 E0.42975 F1800 ; Fill
G0 X339.8281 Y178.0535 F7200 ; Move
G1 X345.0038 Y172.8778 E0.37751 F1800 ; Fill
G0 X345.0038 Y173.5939 F7200 ; Move
G1 X340.5442 Y178.0535 E0.32528 F1800 ; Fill
G0 X341.2603 Y178.0535 F7200 ; Move
G1 X345.0038 Y174.31 E0.27305 F1800 ; Fill
G0 X345.0038 Y175.0261 F7200 ; Move
G1 X341.9764 Y178.0535 E0.22082 F1800 ; Fill
G0 X342.6924 Y178.0535 F7200 ; Move
G1 X345.0038 Y175.7422 E0.16859 F1800 ; Fill
G0 X345.0038 Y176.4583 F7200 ; Move
G1 X343.4085 Y178.0535 E0.11636 F1800 ; Fill
G0 X344.1246 Y178.0535 F7200 ; Move
G1 X345.0038 Y177.1744 E0.06413 F1800 ; Fill
G0 X345.0038 Y177.8904 F7200 ; Move
G1 X344.8407 Y178.0535 E0.0119 F1800 ; Fill
G0 Z0.25 F7200 ; Move to layer height
G1 E-0.5 F2100 ; Retract
G1 Z0.35 F7200 ; Z hop
G0 X287.2384 Y127.3992 F7200 ; Move to pattern start

G1 Z0.25 F7200 ; Z hop return
G1 E0.5 F2100 ; Un-retract
SET_PRESSURE_ADVANCE ADVANCE=0 ; Set pressure advance
M117 PA 0
G1 X306.5592 Y146.72 E1.10311 F1800 ; Print pattern wall
G1 X287.2384 Y166.0408 E1.10311 F1800 ; Print pattern wall
G1 E-0.5 F2100 ; Retract
G1 Z0.35 F7200 ; Z hop
G0 X287.8141 Y127.3992 F7200 ; Move to start next pattern wall
G1 Z0.25 F7200 ; Z hop return
G1 E0.5 F2100 ; Un-retract
G1 X307.1349 Y146.72 E1.10311 F1800 ; Print pattern wall
G1 X287.8141 Y166.0408 E1.10311 F1800 ; Print pattern wall
G1 E-0.5 F2100 ; Retract
G1 Z0.35 F7200 ; Z hop
G0 X288.3898 Y127.3992 F7200 ; Move to start next pattern wall
G1 Z0.25 F7200 ; Z hop return
G1 E0.5 F2100 ; Un-retract
G1 X307.7106 Y146.72 E1.10311 F1800 ; Print pattern wall
G1 X288.3898 Y166.0408 E1.10311 F1800 ; Print pattern wall
G1 E-0.5 F2100 ; Retract
G1 Z0.35 F7200 ; Z hop
G0 X290.8398 Y127.3992 F7200 ; Move to next pattern
G1 Z0.25 F7200 ; Z hop return
G1 E0.5 F2100 ; Un-retract
SET_PRESSURE_ADVANCE ADVANCE=0.005 ; Set pressure advance
M117 PA 0.005
G1 X310.1606 Y146.72 E1.10311 F1800 ; Print pattern wall
G1 X290.8398 Y166.0408 E1.10311 F1800 ; Print pattern wall
G1 E-0.5 F2100 ; Retract
G1 Z0.35 F7200 ; Z hop
G0 X291.4155 Y127.3992 F7200 ; Move to start next pattern wall
G1 Z0.25 F7200 ; Z hop return
G1 E0.5 F2100 ; Un-retract
G1 X310.7363 Y146.72 E1.10311 F1800 ; Print pattern wall
G1 X291.4155 Y166.0408 E1.10311 F1800 ; Print pattern wall
G1 E-0.5 F2100 ; Retract
G1 Z0.35 F7200 ; Z hop
G0 X291.9912 Y127.3992 F7200 ; Move to start next pattern wall
G1 Z0.25 F7200 ; Z hop return
G1 E0.5 F2100 ; Un-retract
G1 X311.312 Y146.72 E1.10311 F1800 ; Print pattern wall
G1 X291.9912 Y166.0408 E1.10311 F1800 ; Print pattern wall
G1 E-0.5 F2100 ; Retract
G1 Z0.35 F7200 ; Z hop
G0 X294.4412 Y127.3992 F7200 ; Move to next pattern
G1 Z0.25 F7200 ; Z hop return
G1 E0.5 F2100 ; Un-retract
SET_PRESSURE_ADVANCE ADVANCE=0.01 ; Set pressure advance
M117 PA 0.01
G1 X313.762 Y146.72 E1.10311 F1800 ; Print pattern wall
G1 X294.4412 Y166.0408 E1.10311 F1800 ; Print pattern wall
G1 E-0.5 F2100 ; Retract
G1 Z0.35 F7200 ; Z hop
G0 X295.0169 Y127.3992 F7200 ; Move to start next pattern wall
G1 Z0.25 F7200 ; Z hop return
G1 E0.5 F2100 ; Un-retract
G1 X314.3377 Y146.72 E1.10311 F1800 ; Print pattern wall
G1 X295.0169 Y166.0408 E1.10311 F1800 ; Print pattern wall
G1 E-0.5 F2100 ; Retract
G1 Z0.35 F7200 ; Z hop
G0 X295.5926 Y127.3992 F7200 ; Move to start next pattern wall
G1 Z0.25 F7200 ; Z hop return
G1 E0.5 F2100 ; Un-retract
G1 X314.9134 Y146.72 E1.10311 F1800 ; Print pattern wall
G1 X295.5926 Y166.0408 E1.10311 F1800 ; Print pattern wall
G1 E-0.5 F2100 ; Retract
G1 Z0.35 F7200 ; Z hop
G0 X298.0426 Y127.3992 F7200 ; Move to next pattern
G1 Z0.25 F7200 ; Z hop return
G1 E0.5 F2100 ; Un-retract
SET_PRESSURE_ADVANCE ADVANCE=0.015 ; Set pressure advance
M117 PA 0.015
G1 X317.3634 Y146.72 E1.10311 F1800 ; Print pattern wall
G1 X298.0426 Y166.0408 E1.10311 F1800 ; Print pattern wall
G1 E-0.5 F2100 ; Retract
G1 Z0.35 F7200 ; Z hop
G0 X298.6183 Y127.3992 F7200 ; Move to start next pattern wall
G1 Z0.25 F7200 ; Z hop return
G1 E0.5 F2100 ; Un-retract
G1 X317.9391 Y146.72 E1.10311 F1800 ; Print pattern wall
G1 X298.6183 Y166.0408 E1.10311 F1800 ; Print pattern wall
G1 E-0.5 F2100 ; Retract
G1 Z0.35 F7200 ; Z hop
G0 X299.194 Y127.3992 F7200 ; Move to start next pattern wall
G1 Z0.25 F7200 ; Z hop return
G1 E0.5 F2100 ; Un-retract
G1 X318.5148 Y146.72 E1.10311 F1800 ; Print pattern wall
G1 X299.194 Y166.0408 E1.10311 F1800 ; Print pattern wall
G1 E-0.5 F2100 ; Retract
G1 Z0.35 F7200 ; Z hop
G0 X301.644 Y127.3992 F7200 ; Move to next pattern
G1 Z0.25 F7200 ; Z hop return
G1 E0.5 F2100 ; Un-retract
SET_PRESSURE_ADVANCE ADVANCE=0.02 ; Set pressure advance
M117 PA 0.02
G1 X320.9648 Y146.72 E1.10311 F1800 ; Print pattern wall
G1 X301.644 Y166.0408 E1.10311 F1800 ; Print pattern wall
G1 E-0.5 F2100 ; Retract
G1 Z0.35 F7200 ; Z hop
G0 X302.2197 Y127.3992 F7200 ; Move to start next pattern wall
G1 Z0.25 F7200 ; Z hop return
G1 E0.5 F2100 ; Un-retract
G1 X321.5405 Y146.72 E1.10311 F1800 ; Print pattern wall
G1 X302.2197 Y166.0408 E1.10311 F1800 ; Print pattern wall
G1 E-0.5 F2100 ; Retract
G1 Z0.35 F7200 ; Z hop
G0 X302.7954 Y127.3992 F7200 ; Move to start next pattern wall
G1 Z0.25 F7200 ; Z hop return
G1 E0.5 F2100 ; Un-retract
G1 X322.1162 Y146.72 E1.10311 F1800 ; Print pattern wall
G1 X302.7954 Y166.0408 E1.10311 F1800 ; Print pattern wall
G1 E-0.5 F2100 ; Retract
G1 Z0.35 F7200 ; Z hop
G0 X305.2454 Y127.3992 F7200 ; Move to next pattern
G1 Z0.25 F7200 ; Z hop return
G1 E0.5 F2100 ; Un-retract
SET_PRESSURE_ADVANCE ADVANCE=0.025 ; Set pressure advance
M117 PA 0.025
G1 X324.5662 Y146.72 E1.10311 F1800 ; Print pattern wall
G1 X305.2454 Y166.0408 E1.10311 F1800 ; Print pattern wall
G1 E-0.5 F2100 ; Retract
G1 Z0.35 F7200 ; Z hop
G0 X305.8211 Y127.3992 F7200 ; Move to start next pattern wall
G1 Z0.25 F7200 ; Z hop return
G1 E0.5 F2100 ; Un-retract
G1 X325.1419 Y146.72 E1.10311 F1800 ; Print pattern wall
G1 X305.8211 Y166.0408 E1.10311 F1800 ; Print pattern wall
G1 E-0.5 F2100 ; Retract
G1 Z0.35 F7200 ; Z hop
G0 X306.3968 Y127.3992 F7200 ; Move to start next pattern wall
G1 Z0.25 F7200 ; Z hop return
G1 E0.5 F2100 ; Un-retract
G1 X325.7176 Y146.72 E1.10311 F1800 ; Print pattern wall
G1 X306.3968 Y166.0408 E1.10311 F1800 ; Print pattern wall
G1 E-0.5 F2100 ; Retract
G1 Z0.35 F7200 ; Z hop
G0 X308.8468 Y127.3992 F7200 ; Move to next pattern
G1 Z0.25 F7200 ; Z hop return
G1 E0.5 F2100 ; Un-retract
SET_PRESSURE_ADVANCE ADVANCE=0.03 ; Set pressure advance
M117 PA 0.03
G1 X328.1676 Y146.72 E1.10311 F1800 ; Print pattern wall
G1 X308.8468 Y166.0408 E1.10311 F1800 ; Print pattern wall
G1 E-0.5 F2100 ; Retract
G1 Z0.35 F7200 ; Z hop
G0 X309.4225 Y127.3992 F7200 ; Move to start next pattern wall
G1 Z0.25 F7200 ; Z hop return
G1 E0.5 F2100 ; Un-retract
G1 X328.7433 Y146.72 E1.10311 F1800 ; Print pattern wall
G1 X309.4225 Y166.0408 E1.10311 F1800 ; Print pattern wall
G1 E-0.5 F2100 ; Retract
G1 Z0.35 F7200 ; Z hop
G0 X309.9981 Y127.3992 F7200 ; Move to start next pattern wall
G1 Z0.25 F7200 ; Z hop return
G1 E0.5 F2100 ; Un-retract
G1 X329.319 Y146.72 E1.10311 F1800 ; Print pattern wall
G1 X309.9981 Y166.0408 E1.10311 F1800 ; Print pattern wall
G1 E-0.5 F2100 ; Retract
G1 Z0.35 F7200 ; Z hop
G0 X312.4481 Y127.3992 F7200 ; Move to next pattern
G1 Z0.25 F7200 ; Z hop return
G1 E0.5 F2100 ; Un-retract
SET_PRESSURE_ADVANCE ADVANCE=0.035 ; Set pressure advance
M117 PA 0.035
G1 X331.769 Y146.72 E1.10311 F1800 ; Print pattern wall
G1 X312.4481 Y166.0408 E1.10311 F1800 ; Print pattern wall
G1 E-0.5 F2100 ; Retract
G1 Z0.35 F7200 ; Z hop
G0 X313.0238 Y127.3992 F7200 ; Move to start next pattern wall
G1 Z0.25 F7200 ; Z hop return
G1 E0.5 F2100 ; Un-retract
G1 X332.3447 Y146.72 E1.10311 F1800 ; Print pattern wall
G1 X313.0238 Y166.0408 E1.10311 F1800 ; Print pattern wall
G1 E-0.5 F2100 ; Retract
G1 Z0.35 F7200 ; Z hop
G0 X313.5995 Y127.3992 F7200 ; Move to start next pattern wall
G1 Z0.25 F7200 ; Z hop return
G1 E0.5 F2100 ; Un-retract
G1 X332.9204 Y146.72 E1.10311 F1800 ; Print pattern wall
G1 X313.5995 Y166.0408 E1.10311 F1800 ; Print pattern wall
G1 E-0.5 F2100 ; Retract
G1 Z0.35 F7200 ; Z hop
G0 X316.0495 Y127.3992 F7200 ; Move to next pattern
G1 Z0.25 F7200 ; Z hop return
G1 E0.5 F2100 ; Un-retract
SET_PRESSURE_ADVANCE ADVANCE=0.04 ; Set pressure advance
M117 PA 0.04
G1 X335.3704 Y146.72 E1.10311 F1800 ; Print pattern wall
G1 X316.0495 Y166.0408 E1.10311 F1800 ; Print pattern wall
G1 E-0.5 F2100 ; Retract
G1 Z0.35 F7200 ; Z hop
G0 X316.6252 Y127.3992 F7200 ; Move to start next pattern wall
G1 Z0.25 F7200 ; Z hop return
G1 E0.5 F2100 ; Un-retract
G1 X335.9461 Y146.72 E1.10311 F1800 ; Print pattern wall
G1 X316.6252 Y166.0408 E1.10311 F1800 ; Print pattern wall
G1 E-0.5 F2100 ; Retract
G1 Z0.35 F7200 ; Z hop
G0 X317.2009 Y127.3992 F7200 ; Move to start next pattern wall
G1 Z0.25 F7200 ; Z hop return
G1 E0.5 F2100 ; Un-retract
G1 X336.5218 Y146.72 E1.10311 F1800 ; Print pattern wall
G1 X317.2009 Y166.0408 E1.10311 F1800 ; Print pattern wall
G1 E-0.5 F2100 ; Retract
G1 Z0.35 F7200 ; Z hop
G0 X319.6509 Y127.3992 F7200 ; Move to next pattern
G1 Z0.25 F7200 ; Z hop return
G1 E0.5 F2100 ; Un-retract
SET_PRESSURE_ADVANCE ADVANCE=0.045 ; Set pressure advance
M117 PA 0.045
G1 X338.9718 Y146.72 E1.10311 F1800 ; Print pattern wall
G1 X319.6509 Y166.0408 E1.10311 F1800 ; Print pattern wall
G1 E-0.5 F2100 ; Retract
G1 Z0.35 F7200 ; Z hop
G0 X320.2266 Y127.3992 F7200 ; Move to start next pattern wall
G1 Z0.25 F7200 ; Z hop return
G1 E0.5 F2100 ; Un-retract
G1 X339.5475 Y146.72 E1.10311 F1800 ; Print pattern wall
G1 X320.2266 Y166.0408 E1.10311 F1800 ; Print pattern wall
G1 E-0.5 F2100 ; Retract
G1 Z0.35 F7200 ; Z hop
G0 X320.8023 Y127.3992 F7200 ; Move to start next pattern wall
G1 Z0.25 F7200 ; Z hop return
G1 E0.5 F2100 ; Un-retract
G1 X340.1232 Y146.72 E1.10311 F1800 ; Print pattern wall
G1 X320.8023 Y166.0408 E1.10311 F1800 ; Print pattern wall
G1 E-0.5 F2100 ; Retract
G1 Z0.35 F7200 ; Z hop
G0 X323.2523 Y127.3992 F7200 ; Move to next pattern
G1 Z0.25 F7200 ; Z hop return
G1 E0.5 F2100 ; Un-retract
SET_PRESSURE_ADVANCE ADVANCE=0.05 ; Set pressure advance
M117 PA 0.05
G1 X342.5732 Y146.72 E1.10311 F1800 ; Print pattern wall
G1 X323.2523 Y166.0408 E1.10311 F1800 ; Print pattern wall
G1 E-0.5 F2100 ; Retract
G1 Z0.35 F7200 ; Z hop
G0 X323.828 Y127.3992 F7200 ; Move to start next pattern wall
G1 Z0.25 F7200 ; Z hop return
G1 E0.5 F2100 ; Un-retract
G1 X343.1489 Y146.72 E1.10311 F1800 ; Print pattern wall
G1 X323.828 Y166.0408 E1.10311 F1800 ; Print pattern wall
G1 E-0.5 F2100 ; Retract
G1 Z0.35 F7200 ; Z hop
G0 X324.4037 Y127.3992 F7200 ; Move to start next pattern wall
G1 Z0.25 F7200 ; Z hop return
G1 E0.5 F2100 ; Un-retract
G1 X343.7246 Y146.72 E1.10311 F1800 ; Print pattern wall
G1 X324.4037 Y166.0408 E1.10311 F1800 ; Print pattern wall
G1 E-0.5 F2100 ; Retract
G1 Z0.35 F7200 ; Z hop
G0 X326.8537 Y127.3992 F7200 ; Move to next pattern
G1 Z0.25 F7200 ; Z hop return
G1 E0.5 F2100 ; Un-retract
SET_PRESSURE_ADVANCE ADVANCE=0.055 ; Set pressure advance
M117 PA 0.055
G1 X346.1746 Y146.72 E1.10311 F1800 ; Print pattern wall
G1 X326.8537 Y166.0408 E1.10311 F1800 ; Print pattern wall
G1 E-0.5 F2100 ; Retract
G1 Z0.35 F7200 ; Z hop
G0 X327.4294 Y127.3992 F7200 ; Move to start next pattern wall
G1 Z0.25 F7200 ; Z hop return
G1 E0.5 F2100 ; Un-retract
G1 X346.7502 Y146.72 E1.10311 F1800 ; Print pattern wall
G1 X327.4294 Y166.0408 E1.10311 F1800 ; Print pattern wall
G1 E-0.5 F2100 ; Retract
G1 Z0.35 F7200 ; Z hop
G0 X328.0051 Y127.3992 F7200 ; Move to start next pattern wall
G1 Z0.25 F7200 ; Z hop return
G1 E0.5 F2100 ; Un-retract
G1 X347.3259 Y146.72 E1.10311 F1800 ; Print pattern wall
G1 X328.0051 Y166.0408 E1.10311 F1800 ; Print pattern wall
G1 E-0.5 F2100 ; Retract
G1 Z0.35 F7200 ; Z hop
G0 X330.4551 Y127.3992 F7200 ; Move to next pattern
G1 Z0.25 F7200 ; Z hop return
G1 E0.5 F2100 ; Un-retract
SET_PRESSURE_ADVANCE ADVANCE=0.06 ; Set pressure advance
M117 PA 0.06
G1 X349.7759 Y146.72 E1.10311 F1800 ; Print pattern wall
G1 X330.4551 Y166.0408 E1.10311 F1800 ; Print pattern wall
G1 E-0.5 F2100 ; Retract
G1 Z0.35 F7200 ; Z hop
G0 X331.0308 Y127.3992 F7200 ; Move to start next pattern wall
G1 Z0.25 F7200 ; Z hop return
G1 E0.5 F2100 ; Un-retract
G1 X350.3516 Y146.72 E1.10311 F1800 ; Print pattern wall
G1 X331.0308 Y166.0408 E1.10311 F1800 ; Print pattern wall
G1 E-0.5 F2100 ; Retract
G1 Z0.35 F7200 ; Z hop
G0 X331.6065 Y127.3992 F7200 ; Move to start next pattern wall
G1 Z0.25 F7200 ; Z hop return
G1 E0.5 F2100 ; Un-retract
G1 X350.9273 Y146.72 E1.10311 F1800 ; Print pattern wall
G1 X331.6065 Y166.0408 E1.10311 F1800 ; Print pattern wall
G1 E-0.5 F2100 ; Retract
G1 Z0.35 F7200 ; Z hop
G0 X334.0565 Y127.3992 F7200 ; Move to next pattern
G1 Z0.25 F7200 ; Z hop return
G1 E0.5 F2100 ; Un-retract
SET_PRESSURE_ADVANCE ADVANCE=0.065 ; Set pressure advance
M117 PA 0.065
G1 X353.3773 Y146.72 E1.10311 F1800 ; Print pattern wall
G1 X334.0565 Y166.0408 E1.10311 F1800 ; Print pattern wall
G1 E-0.5 F2100 ; Retract
G1 Z0.35 F7200 ; Z hop
G0 X334.6322 Y127.3992 F7200 ; Move to start next pattern wall
G1 Z0.25 F7200 ; Z hop return
G1 E0.5 F2100 ; Un-retract
G1 X353.953 Y146.72 E1.10311 F1800 ; Print pattern wall
G1 X334.6322 Y166.0408 E1.10311 F1800 ; Print pattern wall
G1 E-0.5 F2100 ; Retract
G1 Z0.35 F7200 ; Z hop
G0 X335.2079 Y127.3992 F7200 ; Move to start next pattern wall
G1 Z0.25 F7200 ; Z hop return
G1 E0.5 F2100 ; Un-retract
G1 X354.5287 Y146.72 E1.10311 F1800 ; Print pattern wall
G1 X335.2079 Y166.0408 E1.10311 F1800 ; Print pattern wall
G1 E-0.5 F2100 ; Retract
G1 Z0.35 F7200 ; Z hop
G0 X337.6579 Y127.3992 F7200 ; Move to next pattern
G1 Z0.25 F7200 ; Z hop return
G1 E0.5 F2100 ; Un-retract
SET_PRESSURE_ADVANCE ADVANCE=0.07 ; Set pressure advance
M117 PA 0.07
G1 X356.9787 Y146.72 E1.10311 F1800 ; Print pattern wall
G1 X337.6579 Y166.0408 E1.10311 F1800 ; Print pattern wall
G1 E-0.5 F2100 ; Retract
G1 Z0.35 F7200 ; Z hop
G0 X338.2336 Y127.3992 F7200 ; Move to start next pattern wall
G1 Z0.25 F7200 ; Z hop return
G1 E0.5 F2100 ; Un-retract
G1 X357.5544 Y146.72 E1.10311 F1800 ; Print pattern wall
G1 X338.2336 Y166.0408 E1.10311 F1800 ; Print pattern wall
G1 E-0.5 F2100 ; Retract
G1 Z0.35 F7200 ; Z hop
G0 X338.8093 Y127.3992 F7200 ; Move to start next pattern wall
G1 Z0.25 F7200 ; Z hop return
G1 E0.5 F2100 ; Un-retract
G1 X358.1301 Y146.72 E1.10311 F1800 ; Print pattern wall
G1 X338.8093 Y166.0408 E1.10311 F1800 ; Print pattern wall
G1 E-0.5 F2100 ; Retract
G1 Z0.35 F7200 ; Z hop
G0 X341.2593 Y127.3992 F7200 ; Move to next pattern
G1 Z0.25 F7200 ; Z hop return
G1 E0.5 F2100 ; Un-retract
SET_PRESSURE_ADVANCE ADVANCE=0.075 ; Set pressure advance
M117 PA 0.075
G1 X360.5801 Y146.72 E1.10311 F1800 ; Print pattern wall
G1 X341.2593 Y166.0408 E1.10311 F1800 ; Print pattern wall
G1 E-0.5 F2100 ; Retract
G1 Z0.35 F7200 ; Z hop
G0 X341.835 Y127.3992 F7200 ; Move to start next pattern wall
G1 Z0.25 F7200 ; Z hop return
G1 E0.5 F2100 ; Un-retract
G1 X361.1558 Y146.72 E1.10311 F1800 ; Print pattern wall
G1 X341.835 Y166.0408 E1.10311 F1800 ; Print pattern wall
G1 E-0.5 F2100 ; Retract
G1 Z0.35 F7200 ; Z hop
G0 X342.4107 Y127.3992 F7200 ; Move to start next pattern wall
G1 Z0.25 F7200 ; Z hop return
G1 E0.5 F2100 ; Un-retract
G1 X361.7315 Y146.72 E1.10311 F1800 ; Print pattern wall
G1 X342.4107 Y166.0408 E1.10311 F1800 ; Print pattern wall
G1 E-0.5 F2100 ; Retract
G1 Z0.35 F7200 ; Z hop
G0 X344.8607 Y127.3992 F7200 ; Move to next pattern
G1 Z0.25 F7200 ; Z hop return
G1 E0.5 F2100 ; Un-retract
SET_PRESSURE_ADVANCE ADVANCE=0.08 ; Set pressure advance
M117 PA 0.08
G1 X364.1815 Y146.72 E1.10311 F1800 ; Print pattern wall
G1 X344.8607 Y166.0408 E1.10311 F1800 ; Print pattern wall
G1 E-0.5 F2100 ; Retract
G1 Z0.35 F7200 ; Z hop
G0 X345.4364 Y127.3992 F7200 ; Move to start next pattern wall
G1 Z0.25 F7200 ; Z hop return
G1 E0.5 F2100 ; Un-retract
G1 X364.7572 Y146.72 E1.10311 F1800 ; Print pattern wall
G1 X345.4364 Y166.0408 E1.10311 F1800 ; Print pattern wall
G1 E-0.5 F2100 ; Retract
G1 Z0.35 F7200 ; Z hop
G0 X346.0121 Y127.3992 F7200 ; Move to start next pattern wall
G1 Z0.25 F7200 ; Z hop return
G1 E0.5 F2100 ; Un-retract
G1 X365.3329 Y146.72 E1.10311 F1800 ; Print pattern wall
G1 X346.0121 Y166.0408 E1.10311 F1800 ; Print pattern wall
G1 E-0.5 F2100 ; Retract
G1 Z0.35 F7200 ; Z hop
G0 X287.2384 Y127.3992 F7200 ; Move back to start position
G1 Z0.25 F7200 ; Z hop return
G1 E0.5 F2100 ; Un-retract
M106 S255 ; Set fan speed
G0 Z0.45 F7200 ; Move to layer height
SET_PRESSURE_ADVANCE ADVANCE=0 ; Set pressure advance to start value for numbering
M117 PA 0
G1 E-0.5 F2100 ; Retract
G1 Z0.55 F7200 ; Z hop
G0 X283.9217 Y169.3832 F7200 ; Move
G1 Z0.45 F7200 ; Z hop return
G1 E0.5 F2100 ; Un-retract
G1 X285.9217 Y169.3832 E0.06634 F1800 ; Glyph: 0
G1 X287.9217 Y169.3832 E0.06634 F1800 ; Glyph: 0
G1 X287.9217 Y171.3832 E0.06634 F1800 ; Glyph: 0
G1 X285.9217 Y171.3832 E0.06634 F1800 ; Glyph: 0
G1 X283.9217 Y171.3832 E0.06634 F1800 ; Glyph: 0
G1 X283.9217 Y169.3832 E0.06634 F1800 ; Glyph: 0
G1 E-0.5 F2100 ; Retract
G1 Z0.55 F7200 ; Z hop
G0 X291.1245 Y169.3832 F7200 ; Move
G1 Z0.45 F7200 ; Z hop return
G1 E0.5 F2100 ; Un-retract
G1 X293.1245 Y169.3832 E0.06634 F1800 ; Glyph: 0
G1 X295.1245 Y169.3832 E0.06634 F1800 ; Glyph: 0
G1 X295.1245 Y171.3832 E0.06634 F1800 ; Glyph: 0
G1 X293.1245 Y171.3832 E0.06634 F1800 ; Glyph: 0
G1 X291.1245 Y171.3832 E0.06634 F1800 ; Glyph: 0
G1 X291.1245 Y169.3832 E0.06634 F1800 ; Glyph: 0
G1 E-0.5 F2100 ; Retract
G1 Z0.55 F7200 ; Z hop
G0 X295.1245 Y172.3832 F7200 ; Move
G1 Z0.45 F7200 ; Z hop return
G1 E0.5 F2100 ; Un-retract
G1 X294.3745 Y172.3832 E0.02488 F1800 ; Glyph: .
G1 E-0.5 F2100 ; Retract
G1 Z0.55 F7200 ; Z hop
G0 X291.1245 Y173.3832 F7200 ; Move
G1 Z0.45 F7200 ; Z hop return
G1 E0.5 F2100 ; Un-retract
G1 X293.1245 Y173.3832 E0.06634 F1800 ; Glyph: 0
G1 X295.1245 Y173.3832 E0.06634 F1800 ; Glyph: 0
G1 X295.1245 Y175.3832 E0.06634 F1800 ; Glyph: 0
G1 X293.1245 Y175.3832 E0.06634 F1800 ; Glyph: 0
G1 X291.1245 Y175.3832 E0.06634 F1800 ; Glyph: 0
G1 X291.1245 Y173.3832 E0.06634 F1800 ; Glyph: 0
G1 E-0.5 F2100 ; Retract
G1 Z0.55 F7200 ; Z hop
G0 X291.1245 Y176.3832 F7200 ; Move
G1 Z0.45 F7200 ; Z hop return
G1 E0.5 F2100 ; Un-retract
G1 X293.1245 Y176.3832 E0.06634 F1800 ; Glyph: 1
G1 X295.1245 Y176.3832 E0.06634 F1800 ; Glyph: 1
G1 E-0.5 F2100 ; Retract
G1 Z0.55 F7200 ; Z hop
G0 X298.3273 Y169.3832 F7200 ; Move
G1 Z0.45 F7200 ; Z hop return
G1 E0.5 F2100 ; Un-retract
G1 X300.3273 Y169.3832 E0.06634 F1800 ; Glyph: 0
G1 X302.3273 Y169.3832 E0.06634 F1800 ; Glyph: 0
G1 X302.3273 Y171.3832 E0.06634 F1800 ; Glyph: 0
G1 X300.3273 Y171.3832 E0.06634 F1800 ; Glyph: 0
G1 X298.3273 Y171.3832 E0.06634 F1800 ; Glyph: 0
G1 X298.3273 Y169.3832 E0.06634 F1800 ; Glyph: 0
G1 E-0.5 F2100 ; Retract
G1 Z0.55 F7200 ; Z hop
G0 X302.3273 Y172.3832 F7200 ; Move
G1 Z0.45 F7200 ; Z hop return
G1 E0.5 F2100 ; Un-retract
G1 X301.5773 Y172.3832 E0.02488 F1800 ; Glyph: .
G1 E-0.5 F2100 ; Retract
G1 Z0.55 F7200 ; Z hop
G0 X298.3273 Y173.3832 F7200 ; Move
G1 Z0.45 F7200 ; Z hop return
G1 E0.5 F2100 ; Un-retract
G1 X300.3273 Y173.3832 E0.06634 F1800 ; Glyph: 0
G1 X302.3273 Y173.3832 E0.06634 F1800 ; Glyph: 0
G1 X302.3273 Y175.3832 E0.06634 F1800 ; Glyph: 0
G1 X300.3273 Y175.3832 E0.06634 F1800 ; Glyph: 0
G1 X298.3273 Y175.3832 E0.06634 F1800 ; Glyph: 0
G1 X298.3273 Y173.3832 E0.06634 F1800 ; Glyph: 0
G1 E-0.5 F2100 ; Retract
G1 Z0.55 F7200 ; Z hop
G0 X298.3273 Y176.3832 F7200 ; Move
G1 Z0.45 F7200 ; Z hop return
G1 E0.5 F2100 ; Un-retract
G1 X298.3273 Y178.3832 E0.06634 F1800 ; Glyph: 2
G1 X300.3273 Y178.3832 E0.06634 F1800 ; Glyph: 2
G1 X300.3273 Y176.3832 E0.06634 F1800 ; Glyph: 2
G1 X302.3273 Y176.3832 E0.06634 F1800 ; Glyph: 2
G1 X302.3273 Y178.3832 E0.06634 F1800 ; Glyph: 2
G1 E-0.5 F2100 ; Retract
G1 Z0.55 F7200 ; Z hop
G0 X305.5301 Y169.3832 F7200 ; Move
G1 Z0.45 F7200 ; Z hop return
G1 E0.5 F2100 ; Un-retract
G1 X307.5301 Y169.3832 E0.06634 F1800 ; Glyph: 0
G1 X309.5301 Y169.3832 E0.06634 F1800 ; Glyph: 0
G1 X309.5301 Y171.3832 E0.06634 F1800 ; Glyph: 0
G1 X307.5301 Y171.3832 E0.06634 F1800 ; Glyph: 0
G1 X305.5301 Y171.3832 E0.06634 F1800 ; Glyph: 0
G1 X305.5301 Y169.3832 E0.06634 F1800 ; Glyph: 0
G1 E-0.5 F2100 ; Retract
G1 Z0.55 F7200 ; Z hop
G0 X309.5301 Y172.3832 F7200 ; Move
G1 Z0.45 F7200 ; Z hop return
G1 E0.5 F2100 ; Un-retract
G1 X308.7801 Y172.3832 E0.02488 F1800 ; Glyph: .
G1 E-0.5 F2100 ; Retract
G1 Z0.55 F7200 ; Z hop
G0 X305.5301 Y173.3832 F7200 ; Move
G1 Z0.45 F7200 ; Z hop return
G1 E0.5 F2100 ; Un-retract
G1 X307.5301 Y173.3832 E0.06634 F1800 ; Glyph: 0
G1 X309.5301 Y173.3832 E0.06634 F1800 ; Glyph: 0
G1 X309.5301 Y175.3832 E0.06634 F1800 ; Glyph: 0
G1 X307.5301 Y175.3832 E0.06634 F1800 ; Glyph: 0
G1 X305.5301 Y175.3832 E0.06634 F1800 ; Glyph: 0
G1 X305.5301 Y173.3832 E0.06634 F1800 ; Glyph: 0
G1 E-0.5 F2100 ; Retract
G1 Z0.55 F7200 ; Z hop
G0 X305.5301 Y176.3832 F7200 ; Move
G1 Z0.45 F7200 ; Z hop return
G1 E0.5 F2100 ; Un-retract
G1 X305.5301 Y178.3832 E0.06634 F1800 ; Glyph: 3
G1 X307.5301 Y178.3832 E0.06634 F1800 ; Glyph: 3
G1 X307.5301 Y176.3832 E0.06634 F1800 ; Glyph: 3
G0 X307.5301 Y178.3832 F7200 ; Move
G1 X309.5301 Y178.3832 E0.06634 F1800 ; Glyph: 3
G1 X309.5301 Y176.3832 E0.06634 F1800 ; Glyph: 3
G1 E-0.5 F2100 ; Retract
G1 Z0.55 F7200 ; Z hop
G0 X312.7329 Y169.3832 F7200 ; Move
G1 Z0.45 F7200 ; Z hop return
G1 E0.5 F2100 ; Un-retract
G1 X314.7329 Y169.3832 E0.06634 F1800 ; Glyph: 0
G1 X316.7329 Y169.3832 E0.06634 F1800 ; Glyph: 0
G1 X316.7329 Y171.3832 E0.06634 F1800 ; Glyph: 0
G1 X314.7329 Y171.3832 E0.06634 F1800 ; Glyph: 0
G1 X312.7329 Y171.3832 E0.06634 F1800 ; Glyph: 0
G1 X312.7329 Y169.3832 E0.06634 F1800 ; Glyph: 0
G1 E-0.5 F2100 ; Retract
G1 Z0.55 F7200 ; Z hop
G0 X316.7329 Y172.3832 F7200 ; Move
G1 Z0.45 F7200 ; Z hop return
G1 E0.5 F2100 ; Un-retract
G1 X315.9829 Y172.3832 E0.02488 F1800 ; Glyph: .
G1 E-0.5 F2100 ; Retract
G1 Z0.55 F7200 ; Z hop
G0 X312.7329 Y173.3832 F7200 ; Move
G1 Z0.45 F7200 ; Z hop return
G1 E0.5 F2100 ; Un-retract
G1 X314.7329 Y173.3832 E0.06634 F1800 ; Glyph: 0
G1 X316.7329 Y173.3832 E0.06634 F1800 ; Glyph: 0
G1 X316.7329 Y175.3832 E0.06634 F1800 ; Glyph: 0
G1 X314.7329 Y175.3832 E0.06634 F1800 ; Glyph: 0
G1 X312.7329 Y175.3832 E0.06634 F1800 ; Glyph: 0
G1 X312.7329 Y173.3832 E0.06634 F1800 ; Glyph: 0
G1 E-0.5 F2100 ; Retract
G1 Z0.55 F7200 ; Z hop
G0 X312.7329 Y178.3832 F7200 ; Move
G1 Z0.45 F7200 ; Z hop return
G1 E0.5 F2100 ; Un-retract
G1 X314.7329 Y178.3832 E0.06634 F1800 ; Glyph: 4
G1 X316.7329 Y178.3832 E0.06634 F1800 ; Glyph: 4
G0 X314.7329 Y178.3832 F7200 ; Move
G1 X314.7329 Y176.3832 E0.06634 F1800 ; Glyph: 4
G1 X312.7329 Y176.3832 E0.06634 F1800 ; Glyph: 4
G1 E-0.5 F2100 ; Retract
G1 Z0.55 F7200 ; Z hop
G0 X319.9357 Y169.3832 F7200 ; Move
G1 Z0.45 F7200 ; Z hop return
G1 E0.5 F2100 ; Un-retract
G1 X321.9357 Y169.3832 E0.06634 F1800 ; Glyph: 0
G1 X323.9357 Y169.3832 E0.06634 F1800 ; Glyph: 0
G1 X323.9357 Y171.3832 E0.06634 F1800 ; Glyph: 0
G1 X321.9357 Y171.3832 E0.06634 F1800 ; Glyph: 0
G1 X319.9357 Y171.3832 E0.06634 F1800 ; Glyph: 0
G1 X319.9357 Y169.3832 E0.06634 F1800 ; Glyph: 0
G1 E-0.5 F2100 ; Retract
G1 Z0.55 F7200 ; Z hop
G0 X323.9357 Y172.3832 F7200 ; Move
G1 Z0.45 F7200 ; Z hop return
G1 E0.5 F2100 ; Un-retract
G1 X323.1857 Y172.3832 E0.02488 F1800 ; Glyph: .
G1 E-0.5 F2100 ; Retract
G1 Z0.55 F7200 ; Z hop
G0 X319.9357 Y173.3832 F7200 ; Move
G1 Z0.45 F7200 ; Z hop return
G1 E0.5 F2100 ; Un-retract
G1 X321.9357 Y173.3832 E0.06634 F1800 ; Glyph: 0
G1 X323.9357 Y173.3832 E0.06634 F1800 ; Glyph: 0
G1 X323.9357 Y175.3832 E0.06634 F1800 ; Glyph: 0
G1 X321.9357 Y175.3832 E0.06634 F1800 ; Glyph: 0
G1 X319.9357 Y175.3832 E0.06634 F1800 ; Glyph: 0
G1 X319.9357 Y173.3832 E0.06634 F1800 ; Glyph: 0
G1 E-0.5 F2100 ; Retract
G1 Z0.55 F7200 ; Z hop
G0 X319.9357 Y178.3832 F7200 ; Move
G1 Z0.45 F7200 ; Z hop return
G1 E0.5 F2100 ; Un-retract
G1 X319.9357 Y176.3832 E0.06634 F1800 ; Glyph: 5
G1 X321.9357 Y176.3832 E0.06634 F1800 ; Glyph: 5
G1 X321.9357 Y178.3832 E0.06634 F1800 ; Glyph: 5
G1 X323.9357 Y178.3832 E0.06634 F1800 ; Glyph: 5
G1 X323.9357 Y176.3832 E0.06634 F1800 ; Glyph: 5
G1 E-0.5 F2100 ; Retract
G1 Z0.55 F7200 ; Z hop
G0 X327.1384 Y169.3832 F7200 ; Move
G1 Z0.45 F7200 ; Z hop return
G1 E0.5 F2100 ; Un-retract
G1 X329.1384 Y169.3832 E0.06634 F1800 ; Glyph: 0
G1 X331.1384 Y169.3832 E0.06634 F1800 ; Glyph: 0
G1 X331.1384 Y171.3832 E0.06634 F1800 ; Glyph: 0
G1 X329.1384 Y171.3832 E0.06634 F1800 ; Glyph: 0
G1 X327.1384 Y171.3832 E0.06634 F1800 ; Glyph: 0
G1 X327.1384 Y169.3832 E0.06634 F1800 ; Glyph: 0
G1 E-0.5 F2100 ; Retract
G1 Z0.55 F7200 ; Z hop
G0 X331.1384 Y172.3832 F7200 ; Move
G1 Z0.45 F7200 ; Z hop return
G1 E0.5 F2100 ; Un-retract
G1 X330.3884 Y172.3832 E0.02488 F1800 ; Glyph: .
G1 E-0.5 F2100 ; Retract
G1 Z0.55 F7200 ; Z hop
G0 X327.1384 Y173.3832 F7200 ; Move
G1 Z0.45 F7200 ; Z hop return
G1 E0.5 F2100 ; Un-retract
G1 X329.1384 Y173.3832 E0.06634 F1800 ; Glyph: 0
G1 X331.1384 Y173.3832 E0.06634 F1800 ; Glyph: 0
G1 X331.1384 Y175.3832 E0.06634 F1800 ; Glyph: 0
G1 X329.1384 Y175.3832 E0.06634 F1800 ; Glyph: 0
G1 X327.1384 Y175.3832 E0.06634 F1800 ; Glyph: 0
G1 X327.1384 Y173.3832 E0.06634 F1800 ; Glyph: 0
G1 E-0.5 F2100 ; Retract
G1 Z0.55 F7200 ; Z hop
G0 X327.1384 Y178.3832 F7200 ; Move
G1 Z0.45 F7200 ; Z hop return
G1 E0.5 F2100 ; Un-retract
G1 X327.1384 Y176.3832 E0.06634 F1800 ; Glyph: 6
G1 X329.1384 Y176.3832 E0.06634 F1800 ; Glyph: 6
G1 X331.1384 Y176.3832 E0.06634 F1800 ; Glyph: 6
G1 X331.1384 Y178.3832 E0.06634 F1800 ; Glyph: 6
G1 X329.1384 Y178.3832 E0.06634 F1800 ; Glyph: 6
G1 X329.1384 Y176.3832 E0.06634 F1800 ; Glyph: 6
G1 E-0.5 F2100 ; Retract
G1 Z0.55 F7200 ; Z hop
G0 X334.3412 Y169.3832 F7200 ; Move
G1 Z0.45 F7200 ; Z hop return
G1 E0.5 F2100 ; Un-retract
G1 X336.3412 Y169.3832 E0.06634 F1800 ; Glyph: 0
G1 X338.3412 Y169.3832 E0.06634 F1800 ; Glyph: 0
G1 X338.3412 Y171.3832 E0.06634 F1800 ; Glyph: 0
G1 X336.3412 Y171.3832 E0.06634 F1800 ; Glyph: 0
G1 X334.3412 Y171.3832 E0.06634 F1800 ; Glyph: 0
G1 X334.3412 Y169.3832 E0.06634 F1800 ; Glyph: 0
G1 E-0.5 F2100 ; Retract
G1 Z0.55 F7200 ; Z hop
G0 X338.3412 Y172.3832 F7200 ; Move
G1 Z0.45 F7200 ; Z hop return
G1 E0.5 F2100 ; Un-retract
G1 X337.5912 Y172.3832 E0.02488 F1800 ; Glyph: .
G1 E-0.5 F2100 ; Retract
G1 Z0.55 F7200 ; Z hop
G0 X334.3412 Y173.3832 F7200 ; Move
G1 Z0.45 F7200 ; Z hop return
G1 E0.5 F2100 ; Un-retract
G1 X336.3412 Y173.3832 E0.06634 F1800 ; Glyph: 0
G1 X338.3412 Y173.3832 E0.06634 F1800 ; Glyph: 0
G1 X338.3412 Y175.3832 E0.06634 F1800 ; Glyph: 0
G1 X336.3412 Y175.3832 E0.06634 F1800 ; Glyph: 0
G1 X334.3412 Y175.3832 E0.06634 F1800 ; Glyph: 0
G1 X334.3412 Y173.3832 E0.06634 F1800 ; Glyph: 0
G1 E-0.5 F2100 ; Retract
G1 Z0.55 F7200 ; Z hop
G0 X334.3412 Y176.3832 F7200 ; Move
G1 Z0.45 F7200 ; Z hop return
G1 E0.5 F2100 ; Un-retract
G1 X334.3412 Y178.3832 E0.06634 F1800 ; Glyph: 7
G1 X336.3412 Y178.3832 E0.06634 F1800 ; Glyph: 7
G1 X338.3412 Y178.3832 E0.06634 F1800 ; Glyph: 7
G1 E-0.5 F2100 ; Retract
G1 Z0.55 F7200 ; Z hop
G0 X341.544 Y169.3832 F7200 ; Move
G1 Z0.45 F7200 ; Z hop return
G1 E0.5 F2100 ; Un-retract
G1 X343.544 Y169.3832 E0.06634 F1800 ; Glyph: 0
G1 X345.544 Y169.3832 E0.06634 F1800 ; Glyph: 0
G1 X345.544 Y171.3832 E0.06634 F1800 ; Glyph: 0
G1 X343.544 Y171.3832 E0.06634 F1800 ; Glyph: 0
G1 X341.544 Y171.3832 E0.06634 F1800 ; Glyph: 0
G1 X341.544 Y169.3832 E0.06634 F1800 ; Glyph: 0
G1 E-0.5 F2100 ; Retract
G1 Z0.55 F7200 ; Z hop
G0 X345.544 Y172.3832 F7200 ; Move
G1 Z0.45 F7200 ; Z hop return
G1 E0.5 F2100 ; Un-retract
G1 X344.794 Y172.3832 E0.02488 F1800 ; Glyph: .
G1 E-0.5 F2100 ; Retract
G1 Z0.55 F7200 ; Z hop
G0 X341.544 Y173.3832 F7200 ; Move
G1 Z0.45 F7200 ; Z hop return
G1 E0.5 F2100 ; Un-retract
G1 X343.544 Y173.3832 E0.06634 F1800 ; Glyph: 0
G1 X345.544 Y173.3832 E0.06634 F1800 ; Glyph: 0
G1 X345.544 Y175.3832 E0.06634 F1800 ; Glyph: 0
G1 X343.544 Y175.3832 E0.06634 F1800 ; Glyph: 0
G1 X341.544 Y175.3832 E0.06634 F1800 ; Glyph: 0
G1 X341.544 Y173.3832 E0.06634 F1800 ; Glyph: 0
G1 E-0.5 F2100 ; Retract
G1 Z0.55 F7200 ; Z hop
G0 X341.544 Y176.3832 F7200 ; Move
G1 Z0.45 F7200 ; Z hop return
G1 E0.5 F2100 ; Un-retract
G1 X343.544 Y176.3832 E0.06634 F1800 ; Glyph: 8
G1 X345.544 Y176.3832 E0.06634 F1800 ; Glyph: 8
G1 X345.544 Y178.3832 E0.06634 F1800 ; Glyph: 8
G1 X343.544 Y178.3832 E0.06634 F1800 ; Glyph: 8
G1 X341.544 Y178.3832 E0.06634 F1800 ; Glyph: 8
G1 X341.544 Y176.3832 E0.06634 F1800 ; Glyph: 8
G0 X343.544 Y176.3832 F7200 ; Move
G1 X343.544 Y178.3832 E0.06634 F1800 ; Glyph: 8
G1 E-0.5 F2100 ; Retract
G1 Z0.55 F7200 ; Z hop
G0 X285.346 Y125.5068 F7200 ; Move to pattern start

G1 Z0.45 F7200 ; Z hop return
G1 E0.5 F2100 ; Un-retract
SET_PRESSURE_ADVANCE ADVANCE=0 ; Set pressure advance
M117 PA 0
G1 X306.5592 Y146.72 E0.99515 F6000 ; Print pattern wall
G1 X285.346 Y167.9332 E0.99515 F6000 ; Print pattern wall
G1 E-0.5 F2100 ; Retract
G1 Z0.55 F7200 ; Z hop
G0 X285.9217 Y125.5068 F7200 ; Move to start next pattern wall
G1 Z0.45 F7200 ; Z hop return
G1 E0.5 F2100 ; Un-retract
G1 X307.1349 Y146.72 E0.99515 F6000 ; Print pattern wall
G1 X285.9217 Y167.9332 E0.99515 F6000 ; Print pattern wall
G1 E-0.5 F2100 ; Retract
G1 Z0.55 F7200 ; Z hop
G0 X286.4974 Y125.5068 F7200 ; Move to start next pattern wall
G1 Z0.45 F7200 ; Z hop return
G1 E0.5 F2100 ; Un-retract
G1 X307.7106 Y146.72 E0.99515 F6000 ; Print pattern wall
G1 X286.4974 Y167.9332 E0.99515 F6000 ; Print pattern wall
G1 E-0.5 F2100 ; Retract
G1 Z0.55 F7200 ; Z hop
G0 X288.9474 Y125.5068 F7200 ; Move to next pattern
G1 Z0.45 F7200 ; Z hop return
G1 E0.5 F2100 ; Un-retract
SET_PRESSURE_ADVANCE ADVANCE=0.005 ; Set pressure advance
M117 PA 0.005
G1 X310.1606 Y146.72 E0.99515 F6000 ; Print pattern wall
G1 X288.9474 Y167.9332 E0.99515 F6000 ; Print pattern wall
G1 E-0.5 F2100 ; Retract
G1 Z0.55 F7200 ; Z hop
G0 X289.5231 Y125.5068 F7200 ; Move to start next pattern wall
G1 Z0.45 F7200 ; Z hop return
G1 E0.5 F2100 ; Un-retract
G1 X310.7363 Y146.72 E0.99515 F6000 ; Print pattern wall
G1 X289.5231 Y167.9332 E0.99515 F6000 ; Print pattern wall
G1 E-0.5 F2100 ; Retract
G1 Z0.55 F7200 ; Z hop
G0 X290.0988 Y125.5068 F7200 ; Move to start next pattern wall
G1 Z0.45 F7200 ; Z hop return
G1 E0.5 F2100 ; Un-retract
G1 X311.312 Y146.72 E0.99515 F6000 ; Print pattern wall
G1 X290.0988 Y167.9332 E0.99515 F6000 ; Print pattern wall
G1 E-0.5 F2100 ; Retract
G1 Z0.55 F7200 ; Z hop
G0 X292.5488 Y125.5068 F7200 ; Move to next pattern
G1 Z0.45 F7200 ; Z hop return
G1 E0.5 F2100 ; Un-retract
SET_PRESSURE_ADVANCE ADVANCE=0.01 ; Set pressure advance
M117 PA 0.01
G1 X313.762 Y146.72 E0.99515 F6000 ; Print pattern wall
G1 X292.5488 Y167.9332 E0.99515 F6000 ; Print pattern wall
G1 E-0.5 F2100 ; Retract
G1 Z0.55 F7200 ; Z hop
G0 X293.1245 Y125.5068 F7200 ; Move to start next pattern wall
G1 Z0.45 F7200 ; Z hop return
G1 E0.5 F2100 ; Un-retract
G1 X314.3377 Y146.72 E0.99515 F6000 ; Print pattern wall
G1 X293.1245 Y167.9332 E0.99515 F6000 ; Print pattern wall
G1 E-0.5 F2100 ; Retract
G1 Z0.55 F7200 ; Z hop
G0 X293.7002 Y125.5068 F7200 ; Move to start next pattern wall
G1 Z0.45 F7200 ; Z hop return
G1 E0.5 F2100 ; Un-retract
G1 X314.9134 Y146.72 E0.99515 F6000 ; Print pattern wall
G1 X293.7002 Y167.9332 E0.99515 F6000 ; Print pattern wall
G1 E-0.5 F2100 ; Retract
G1 Z0.55 F7200 ; Z hop
G0 X296.1502 Y125.5068 F7200 ; Move to next pattern
G1 Z0.45 F7200 ; Z hop return
G1 E0.5 F2100 ; Un-retract
SET_PRESSURE_ADVANCE ADVANCE=0.015 ; Set pressure advance
M117 PA 0.015
G1 X317.3634 Y146.72 E0.99515 F6000 ; Print pattern wall
G1 X296.1502 Y167.9332 E0.99515 F6000 ; Print pattern wall
G1 E-0.5 F2100 ; Retract
G1 Z0.55 F7200 ; Z hop
G0 X296.7259 Y125.5068 F7200 ; Move to start next pattern wall
G1 Z0.45 F7200 ; Z hop return
G1 E0.5 F2100 ; Un-retract
G1 X317.9391 Y146.72 E0.99515 F6000 ; Print pattern wall
G1 X296.7259 Y167.9332 E0.99515 F6000 ; Print pattern wall
G1 E-0.5 F2100 ; Retract
G1 Z0.55 F7200 ; Z hop
G0 X297.3016 Y125.5068 F7200 ; Move to start next pattern wall
G1 Z0.45 F7200 ; Z hop return
G1 E0.5 F2100 ; Un-retract
G1 X318.5148 Y146.72 E0.99515 F6000 ; Print pattern wall
G1 X297.3016 Y167.9332 E0.99515 F6000 ; Print pattern wall
G1 E-0.5 F2100 ; Retract
G1 Z0.55 F7200 ; Z hop
G0 X299.7516 Y125.5068 F7200 ; Move to next pattern
G1 Z0.45 F7200 ; Z hop return
G1 E0.5 F2100 ; Un-retract
SET_PRESSURE_ADVANCE ADVANCE=0.02 ; Set pressure advance
M117 PA 0.02
G1 X320.9648 Y146.72 E0.99515 F6000 ; Print pattern wall
G1 X299.7516 Y167.9332 E0.99515 F6000 ; Print pattern wall
G1 E-0.5 F2100 ; Retract
G1 Z0.55 F7200 ; Z hop
G0 X300.3273 Y125.5068 F7200 ; Move to start next pattern wall
G1 Z0.45 F7200 ; Z hop return
G1 E0.5 F2100 ; Un-retract
G1 X321.5405 Y146.72 E0.99515 F6000 ; Print pattern wall
G1 X300.3273 Y167.9332 E0.99515 F6000 ; Print pattern wall
G1 E-0.5 F2100 ; Retract
G1 Z0.55 F7200 ; Z hop
G0 X300.903 Y125.5068 F7200 ; Move to start next pattern wall
G1 Z0.45 F7200 ; Z hop return
G1 E0.5 F2100 ; Un-retract
G1 X322.1162 Y146.72 E0.99515 F6000 ; Print pattern wall
G1 X300.903 Y167.9332 E0.99515 F6000 ; Print pattern wall
G1 E-0.5 F2100 ; Retract
G1 Z0.55 F7200 ; Z hop
G0 X303.353 Y125.5068 F7200 ; Move to next pattern
G1 Z0.45 F7200 ; Z hop return
G1 E0.5 F2100 ; Un-retract
SET_PRESSURE_ADVANCE ADVANCE=0.025 ; Set pressure advance
M117 PA 0.025
G1 X324.5662 Y146.72 E0.99515 F6000 ; Print pattern wall
G1 X303.353 Y167.9332 E0.99515 F6000 ; Print pattern wall
G1 E-0.5 F2100 ; Retract
G1 Z0.55 F7200 ; Z hop
G0 X303.9287 Y125.5068 F7200 ; Move to start next pattern wall
G1 Z0.45 F7200 ; Z hop return
G1 E0.5 F2100 ; Un-retract
G1 X325.1419 Y146.72 E0.99515 F6000 ; Print pattern wall
G1 X303.9287 Y167.9332 E0.99515 F6000 ; Print pattern wall
G1 E-0.5 F2100 ; Retract
G1 Z0.55 F7200 ; Z hop
G0 X304.5044 Y125.5068 F7200 ; Move to start next pattern wall
G1 Z0.45 F7200 ; Z hop return
G1 E0.5 F2100 ; Un-retract
G1 X325.7176 Y146.72 E0.99515 F6000 ; Print pattern wall
G1 X304.5044 Y167.9332 E0.99515 F6000 ; Print pattern wall
G1 E-0.5 F2100 ; Retract
G1 Z0.55 F7200 ; Z hop
G0 X306.9544 Y125.5068 F7200 ; Move to next pattern
G1 Z0.45 F7200 ; Z hop return
G1 E0.5 F2100 ; Un-retract
SET_PRESSURE_ADVANCE ADVANCE=0.03 ; Set pressure advance
M117 PA 0.03
G1 X328.1676 Y146.72 E0.99515 F6000 ; Print pattern wall
G1 X306.9544 Y167.9332 E0.99515 F6000 ; Print pattern wall
G1 E-0.5 F2100 ; Retract
G1 Z0.55 F7200 ; Z hop
G0 X307.5301 Y125.5068 F7200 ; Move to start next pattern wall
G1 Z0.45 F7200 ; Z hop return
G1 E0.5 F2100 ; Un-retract
G1 X328.7433 Y146.72 E0.99515 F6000 ; Print pattern wall
G1 X307.5301 Y167.9332 E0.99515 F6000 ; Print pattern wall
G1 E-0.5 F2100 ; Retract
G1 Z0.55 F7200 ; Z hop
G0 X308.1058 Y125.5068 F7200 ; Move to start next pattern wall
G1 Z0.45 F7200 ; Z hop return
G1 E0.5 F2100 ; Un-retract
G1 X329.319 Y146.72 E0.99515 F6000 ; Print pattern wall
G1 X308.1058 Y167.9332 E0.99515 F6000 ; Print pattern wall
G1 E-0.5 F2100 ; Retract
G1 Z0.55 F7200 ; Z hop
G0 X310.5558 Y125.5068 F7200 ; Move to next pattern
G1 Z0.45 F7200 ; Z hop return
G1 E0.5 F2100 ; Un-retract
SET_PRESSURE_ADVANCE ADVANCE=0.035 ; Set pressure advance
M117 PA 0.035
G1 X331.769 Y146.72 E0.99515 F6000 ; Print pattern wall
G1 X310.5558 Y167.9332 E0.99515 F6000 ; Print pattern wall
G1 E-0.5 F2100 ; Retract
G1 Z0.55 F7200 ; Z hop
G0 X311.1315 Y125.5068 F7200 ; Move to start next pattern wall
G1 Z0.45 F7200 ; Z hop return
G1 E0.5 F2100 ; Un-retract
G1 X332.3447 Y146.72 E0.99515 F6000 ; Print pattern wall
G1 X311.1315 Y167.9332 E0.99515 F6000 ; Print pattern wall
G1 E-0.5 F2100 ; Retract
G1 Z0.55 F7200 ; Z hop
G0 X311.7072 Y125.5068 F7200 ; Move to start next pattern wall
G1 Z0.45 F7200 ; Z hop return
G1 E0.5 F2100 ; Un-retract
G1 X332.9204 Y146.72 E0.99515 F6000 ; Print pattern wall
G1 X311.7072 Y167.9332 E0.99515 F6000 ; Print pattern wall
G1 E-0.5 F2100 ; Retract
G1 Z0.55 F7200 ; Z hop
G0 X314.1572 Y125.5068 F7200 ; Move to next pattern
G1 Z0.45 F7200 ; Z hop return
G1 E0.5 F2100 ; Un-retract
SET_PRESSURE_ADVANCE ADVANCE=0.04 ; Set pressure advance
M117 PA 0.04
G1 X335.3704 Y146.72 E0.99515 F6000 ; Print pattern wall
G1 X314.1572 Y167.9332 E0.99515 F6000 ; Print pattern wall
G1 E-0.5 F2100 ; Retract
G1 Z0.55 F7200 ; Z hop
G0 X314.7329 Y125.5068 F7200 ; Move to start next pattern wall
G1 Z0.45 F7200 ; Z hop return
G1 E0.5 F2100 ; Un-retract
G1 X335.9461 Y146.72 E0.99515 F6000 ; Print pattern wall
G1 X314.7329 Y167.9332 E0.99515 F6000 ; Print pattern wall
G1 E-0.5 F2100 ; Retract
G1 Z0.55 F7200 ; Z hop
G0 X315.3086 Y125.5068 F7200 ; Move to start next pattern wall
G1 Z0.45 F7200 ; Z hop return
G1 E0.5 F2100 ; Un-retract
G1 X336.5218 Y146.72 E0.99515 F6000 ; Print pattern wall
G1 X315.3086 Y167.9332 E0.99515 F6000 ; Print pattern wall
G1 E-0.5 F2100 ; Retract
G1 Z0.55 F7200 ; Z hop
G0 X317.7586 Y125.5068 F7200 ; Move to next pattern
G1 Z0.45 F7200 ; Z hop return
G1 E0.5 F2100 ; Un-retract
SET_PRESSURE_ADVANCE ADVANCE=0.045 ; Set pressure advance
M117 PA 0.045
G1 X338.9718 Y146.72 E0.99515 F6000 ; Print pattern wall
G1 X317.7586 Y167.9332 E0.99515 F6000 ; Print pattern wall
G1 E-0.5 F2100 ; Retract
G1 Z0.55 F7200 ; Z hop
G0 X318.3343 Y125.5068 F7200 ; Move to start next pattern wall
G1 Z0.45 F7200 ; Z hop return
G1 E0.5 F2100 ; Un-retract
G1 X339.5475 Y146.72 E0.99515 F6000 ; Print pattern wall
G1 X318.3343 Y167.9332 E0.99515 F6000 ; Print pattern wall
G1 E-0.5 F2100 ; Retract
G1 Z0.55 F7200 ; Z hop
G0 X318.91 Y125.5068 F7200 ; Move to start next pattern wall
G1 Z0.45 F7200 ; Z hop return
G1 E0.5 F2100 ; Un-retract
G1 X340.1232 Y146.72 E0.99515 F6000 ; Print pattern wall
G1 X318.91 Y167.9332 E0.99515 F6000 ; Print pattern wall
G1 E-0.5 F2100 ; Retract
G1 Z0.55 F7200 ; Z hop
G0 X321.36 Y125.5068 F7200 ; Move to next pattern
G1 Z0.45 F7200 ; Z hop return
G1 E0.5 F2100 ; Un-retract
SET_PRESSURE_ADVANCE ADVANCE=0.05 ; Set pressure advance
M117 PA 0.05
G1 X342.5732 Y146.72 E0.99515 F6000 ; Print pattern wall
G1 X321.36 Y167.9332 E0.99515 F6000 ; Print pattern wall
G1 E-0.5 F2100 ; Retract
G1 Z0.55 F7200 ; Z hop
G0 X321.9357 Y125.5068 F7200 ; Move to start next pattern wall
G1 Z0.45 F7200 ; Z hop return
G1 E0.5 F2100 ; Un-retract
G1 X343.1489 Y146.72 E0.99515 F6000 ; Print pattern wall
G1 X321.9357 Y167.9332 E0.99515 F6000 ; Print pattern wall
G1 E-0.5 F2100 ; Retract
G1 Z0.55 F7200 ; Z hop
G0 X322.5113 Y125.5068 F7200 ; Move to start next pattern wall
G1 Z0.45 F7200 ; Z hop return
G1 E0.5 F2100 ; Un-retract
G1 X343.7246 Y146.72 E0.99515 F6000 ; Print pattern wall
G1 X322.5113 Y167.9332 E0.99515 F6000 ; Print pattern wall
G1 E-0.5 F2100 ; Retract
G1 Z0.55 F7200 ; Z hop
G0 X324.9613 Y125.5068 F7200 ; Move to next pattern
G1 Z0.45 F7200 ; Z hop return
G1 E0.5 F2100 ; Un-retract
SET_PRESSURE_ADVANCE ADVANCE=0.055 ; Set pressure advance
M117 PA 0.055
G1 X346.1746 Y146.72 E0.99515 F6000 ; Print pattern wall
G1 X324.9613 Y167.9332 E0.99515 F6000 ; Print pattern wall
G1 E-0.5 F2100 ; Retract
G1 Z0.55 F7200 ; Z hop
G0 X325.537 Y125.5068 F7200 ; Move to start next pattern wall
G1 Z0.45 F7200 ; Z hop return
G1 E0.5 F2100 ; Un-retract
G1 X346.7502 Y146.72 E0.99515 F6000 ; Print pattern wall
G1 X325.537 Y167.9332 E0.99515 F6000 ; Print pattern wall
G1 E-0.5 F2100 ; Retract
G1 Z0.55 F7200 ; Z hop
G0 X326.1127 Y125.5068 F7200 ; Move to start next pattern wall
G1 Z0.45 F7200 ; Z hop return
G1 E0.5 F2100 ; Un-retract
G1 X347.3259 Y146.72 E0.99515 F6000 ; Print pattern wall
G1 X326.1127 Y167.9332 E0.99515 F6000 ; Print pattern wall
G1 E-0.5 F2100 ; Retract
G1 Z0.55 F7200 ; Z hop
G0 X328.5627 Y125.5068 F7200 ; Move to next pattern
G1 Z0.45 F7200 ; Z hop return
G1 E0.5 F2100 ; Un-retract
SET_PRESSURE_ADVANCE ADVANCE=0.06 ; Set pressure advance
M117 PA 0.06
G1 X349.7759 Y146.72 E0.99515 F6000 ; Print pattern wall
G1 X328.5627 Y167.9332 E0.99515 F6000 ; Print pattern wall
G1 E-0.5 F2100 ; Retract
G1 Z0.55 F7200 ; Z hop
G0 X329.1384 Y125.5068 F7200 ; Move to start next pattern wall
G1 Z0.45 F7200 ; Z hop return
G1 E0.5 F2100 ; Un-retract
G1 X350.3516 Y146.72 E0.99515 F6000 ; Print pattern wall
G1 X329.1384 Y167.9332 E0.99515 F6000 ; Print pattern wall
G1 E-0.5 F2100 ; Retract
G1 Z0.55 F7200 ; Z hop
G0 X329.7141 Y125.5068 F7200 ; Move to start next pattern wall
G1 Z0.45 F7200 ; Z hop return
G1 E0.5 F2100 ; Un-retract
G1 X350.9273 Y146.72 E0.99515 F6000 ; Print pattern wall
G1 X329.7141 Y167.9332 E0.99515 F6000 ; Print pattern wall
G1 E-0.5 F2100 ; Retract
G1 Z0.55 F7200 ; Z hop
G0 X332.1641 Y125.5068 F7200 ; Move to next pattern
G1 Z0.45 F7200 ; Z hop return
G1 E0.5 F2100 ; Un-retract
SET_PRESSURE_ADVANCE ADVANCE=0.065 ; Set pressure advance
M117 PA 0.065
G1 X353.3773 Y146.72 E0.99515 F6000 ; Print pattern wall
G1 X332.1641 Y167.9332 E0.99515 F6000 ; Print pattern wall
G1 E-0.5 F2100 ; Retract
G1 Z0.55 F7200 ; Z hop
G0 X332.7398 Y125.5068 F7200 ; Move to start next pattern wall
G1 Z0.45 F7200 ; Z hop return
G1 E0.5 F2100 ; Un-retract
G1 X353.953 Y146.72 E0.99515 F6000 ; Print pattern wall
G1 X332.7398 Y167.9332 E0.99515 F6000 ; Print pattern wall
G1 E-0.5 F2100 ; Retract
G1 Z0.55 F7200 ; Z hop
G0 X333.3155 Y125.5068 F7200 ; Move to start next pattern wall
G1 Z0.45 F7200 ; Z hop return
G1 E0.5 F2100 ; Un-retract
G1 X354.5287 Y146.72 E0.99515 F6000 ; Print pattern wall
G1 X333.3155 Y167.9332 E0.99515 F6000 ; Print pattern wall
G1 E-0.5 F2100 ; Retract
G1 Z0.55 F7200 ; Z hop
G0 X335.7655 Y125.5068 F7200 ; Move to next pattern
G1 Z0.45 F7200 ; Z hop return
G1 E0.5 F2100 ; Un-retract
SET_PRESSURE_ADVANCE ADVANCE=0.07 ; Set pressure advance
M117 PA 0.07
G1 X356.9787 Y146.72 E0.99515 F6000 ; Print pattern wall
G1 X335.7655 Y167.9332 E0.99515 F6000 ; Print pattern wall
G1 E-0.5 F2100 ; Retract
G1 Z0.55 F7200 ; Z hop
G0 X336.3412 Y125.5068 F7200 ; Move to start next pattern wall
G1 Z0.45 F7200 ; Z hop return
G1 E0.5 F2100 ; Un-retract
G1 X357.5544 Y146.72 E0.99515 F6000 ; Print pattern wall
G1 X336.3412 Y167.9332 E0.99515 F6000 ; Print pattern wall
G1 E-0.5 F2100 ; Retract
G1 Z0.55 F7200 ; Z hop
G0 X336.9169 Y125.5068 F7200 ; Move to start next pattern wall
G1 Z0.45 F7200 ; Z hop return
G1 E0.5 F2100 ; Un-retract
G1 X358.1301 Y146.72 E0.99515 F6000 ; Print pattern wall
G1 X336.9169 Y167.9332 E0.99515 F6000 ; Print pattern wall
G1 E-0.5 F2100 ; Retract
G1 Z0.55 F7200 ; Z hop
G0 X339.3669 Y125.5068 F7200 ; Move to next pattern
G1 Z0.45 F7200 ; Z hop return
G1 E0.5 F2100 ; Un-retract
SET_PRESSURE_ADVANCE ADVANCE=0.075 ; Set pressure advance
M117 PA 0.075
G1 X360.5801 Y146.72 E0.99515 F6000 ; Print pattern wall
G1 X339.3669 Y167.9332 E0.99515 F6000 ; Print pattern wall
G1 E-0.5 F2100 ; Retract
G1 Z0.55 F7200 ; Z hop
G0 X339.9426 Y125.5068 F7200 ; Move to start next pattern wall
G1 Z0.45 F7200 ; Z hop return
G1 E0.5 F2100 ; Un-retract
G1 X361.1558 Y146.72 E0.99515 F6000 ; Print pattern wall
G1 X339.9426 Y167.9332 E0.99515 F6000 ; Print pattern wall
G1 E-0.5 F2100 ; Retract
G1 Z0.55 F7200 ; Z hop
G0 X340.5183 Y125.5068 F7200 ; Move to start next pattern wall
G1 Z0.45 F7200 ; Z hop return
G1 E0.5 F2100 ; Un-retract
G1 X361.7315 Y146.72 E0.99515 F6000 ; Print pattern wall
G1 X340.5183 Y167.9332 E0.99515 F6000 ; Print pattern wall
G1 E-0.5 F2100 ; Retract
G1 Z0.55 F7200 ; Z hop
G0 X342.9683 Y125.5068 F7200 ; Move to next pattern
G1 Z0.45 F7200 ; Z hop return
G1 E0.5 F2100 ; Un-retract
SET_PRESSURE_ADVANCE ADVANCE=0.08 ; Set pressure advance
M117 PA 0.08
G1 X364.1815 Y146.72 E0.99515 F6000 ; Print pattern wall
G1 X342.9683 Y167.9332 E0.99515 F6000 ; Print pattern wall
G1 E-0.5 F2100 ; Retract
G1 Z0.55 F7200 ; Z hop
G0 X343.544 Y125.5068 F7200 ; Move to start next pattern wall
G1 Z0.45 F7200 ; Z hop return
G1 E0.5 F2100 ; Un-retract
G1 X364.7572 Y146.72 E0.99515 F6000 ; Print pattern wall
G1 X343.544 Y167.9332 E0.99515 F6000 ; Print pattern wall
G1 E-0.5 F2100 ; Retract
G1 Z0.55 F7200 ; Z hop
G0 X344.1197 Y125.5068 F7200 ; Move to start next pattern wall
G1 Z0.45 F7200 ; Z hop return
G1 E0.5 F2100 ; Un-retract
G1 X365.3329 Y146.72 E0.99515 F6000 ; Print pattern wall
G1 X344.1197 Y167.9332 E0.99515 F6000 ; Print pattern wall
G1 E-0.5 F2100 ; Retract
G1 Z0.55 F7200 ; Z hop
G0 X285.346 Y125.5068 F7200 ; Move back to start position
G1 Z0.45 F7200 ; Z hop return
G1 E0.5 F2100 ; Un-retract
G0 Z0.65 F7200 ; Move to layer height
SET_PRESSURE_ADVANCE ADVANCE=0 ; Set pressure advance
M117 PA 0
G1 X306.5592 Y146.72 E0.99515 F6000 ; Print pattern wall
G1 X285.346 Y167.9332 E0.99515 F6000 ; Print pattern wall
G1 E-0.5 F2100 ; Retract
G1 Z0.75 F7200 ; Z hop
G0 X285.9217 Y125.5068 F7200 ; Move to start next pattern wall
G1 Z0.65 F7200 ; Z hop return
G1 E0.5 F2100 ; Un-retract
G1 X307.1349 Y146.72 E0.99515 F6000 ; Print pattern wall
G1 X285.9217 Y167.9332 E0.99515 F6000 ; Print pattern wall
G1 E-0.5 F2100 ; Retract
G1 Z0.75 F7200 ; Z hop
G0 X286.4974 Y125.5068 F7200 ; Move to start next pattern wall
G1 Z0.65 F7200 ; Z hop return
G1 E0.5 F2100 ; Un-retract
G1 X307.7106 Y146.72 E0.99515 F6000 ; Print pattern wall
G1 X286.4974 Y167.9332 E0.99515 F6000 ; Print pattern wall
G1 E-0.5 F2100 ; Retract
G1 Z0.75 F7200 ; Z hop
G0 X288.9474 Y125.5068 F7200 ; Move to next pattern
G1 Z0.65 F7200 ; Z hop return
G1 E0.5 F2100 ; Un-retract
SET_PRESSURE_ADVANCE ADVANCE=0.005 ; Set pressure advance
M117 PA 0.005
G1 X310.1606 Y146.72 E0.99515 F6000 ; Print pattern wall
G1 X288.9474 Y167.9332 E0.99515 F6000 ; Print pattern wall
G1 E-0.5 F2100 ; Retract
G1 Z0.75 F7200 ; Z hop
G0 X289.5231 Y125.5068 F7200 ; Move to start next pattern wall
G1 Z0.65 F7200 ; Z hop return
G1 E0.5 F2100 ; Un-retract
G1 X310.7363 Y146.72 E0.99515 F6000 ; Print pattern wall
G1 X289.5231 Y167.9332 E0.99515 F6000 ; Print pattern wall
G1 E-0.5 F2100 ; Retract
G1 Z0.75 F7200 ; Z hop
G0 X290.0988 Y125.5068 F7200 ; Move to start next pattern wall
G1 Z0.65 F7200 ; Z hop return
G1 E0.5 F2100 ; Un-retract
G1 X311.312 Y146.72 E0.99515 F6000 ; Print pattern wall
G1 X290.0988 Y167.9332 E0.99515 F6000 ; Print pattern wall
G1 E-0.5 F2100 ; Retract
G1 Z0.75 F7200 ; Z hop
G0 X292.5488 Y125.5068 F7200 ; Move to next pattern
G1 Z0.65 F7200 ; Z hop return
G1 E0.5 F2100 ; Un-retract
SET_PRESSURE_ADVANCE ADVANCE=0.01 ; Set pressure advance
M117 PA 0.01
G1 X313.762 Y146.72 E0.99515 F6000 ; Print pattern wall
G1 X292.5488 Y167.9332 E0.99515 F6000 ; Print pattern wall
G1 E-0.5 F2100 ; Retract
G1 Z0.75 F7200 ; Z hop
G0 X293.1245 Y125.5068 F7200 ; Move to start next pattern wall
G1 Z0.65 F7200 ; Z hop return
G1 E0.5 F2100 ; Un-retract
G1 X314.3377 Y146.72 E0.99515 F6000 ; Print pattern wall
G1 X293.1245 Y167.9332 E0.99515 F6000 ; Print pattern wall
G1 E-0.5 F2100 ; Retract
G1 Z0.75 F7200 ; Z hop
G0 X293.7002 Y125.5068 F7200 ; Move to start next pattern wall
G1 Z0.65 F7200 ; Z hop return
G1 E0.5 F2100 ; Un-retract
G1 X314.9134 Y146.72 E0.99515 F6000 ; Print pattern wall
G1 X293.7002 Y167.9332 E0.99515 F6000 ; Print pattern wall
G1 E-0.5 F2100 ; Retract
G1 Z0.75 F7200 ; Z hop
G0 X296.1502 Y125.5068 F7200 ; Move to next pattern
G1 Z0.65 F7200 ; Z hop return
G1 E0.5 F2100 ; Un-retract
SET_PRESSURE_ADVANCE ADVANCE=0.015 ; Set pressure advance
M117 PA 0.015
G1 X317.3634 Y146.72 E0.99515 F6000 ; Print pattern wall
G1 X296.1502 Y167.9332 E0.99515 F6000 ; Print pattern wall
G1 E-0.5 F2100 ; Retract
G1 Z0.75 F7200 ; Z hop
G0 X296.7259 Y125.5068 F7200 ; Move to start next pattern wall
G1 Z0.65 F7200 ; Z hop return
G1 E0.5 F2100 ; Un-retract
G1 X317.9391 Y146.72 E0.99515 F6000 ; Print pattern wall
G1 X296.7259 Y167.9332 E0.99515 F6000 ; Print pattern wall
G1 E-0.5 F2100 ; Retract
G1 Z0.75 F7200 ; Z hop
G0 X297.3016 Y125.5068 F7200 ; Move to start next pattern wall
G1 Z0.65 F7200 ; Z hop return
G1 E0.5 F2100 ; Un-retract
G1 X318.5148 Y146.72 E0.99515 F6000 ; Print pattern wall
G1 X297.3016 Y167.9332 E0.99515 F6000 ; Print pattern wall
G1 E-0.5 F2100 ; Retract
G1 Z0.75 F7200 ; Z hop
G0 X299.7516 Y125.5068 F7200 ; Move to next pattern
G1 Z0.65 F7200 ; Z hop return
G1 E0.5 F2100 ; Un-retract
SET_PRESSURE_ADVANCE ADVANCE=0.02 ; Set pressure advance
M117 PA 0.02
G1 X320.9648 Y146.72 E0.99515 F6000 ; Print pattern wall
G1 X299.7516 Y167.9332 E0.99515 F6000 ; Print pattern wall
G1 E-0.5 F2100 ; Retract
G1 Z0.75 F7200 ; Z hop
G0 X300.3273 Y125.5068 F7200 ; Move to start next pattern wall
G1 Z0.65 F7200 ; Z hop return
G1 E0.5 F2100 ; Un-retract
G1 X321.5405 Y146.72 E0.99515 F6000 ; Print pattern wall
G1 X300.3273 Y167.9332 E0.99515 F6000 ; Print pattern wall
G1 E-0.5 F2100 ; Retract
G1 Z0.75 F7200 ; Z hop
G0 X300.903 Y125.5068 F7200 ; Move to start next pattern wall
G1 Z0.65 F7200 ; Z hop return
G1 E0.5 F2100 ; Un-retract
G1 X322.1162 Y146.72 E0.99515 F6000 ; Print pattern wall
G1 X300.903 Y167.9332 E0.99515 F6000 ; Print pattern wall
G1 E-0.5 F2100 ; Retract
G1 Z0.75 F7200 ; Z hop
G0 X303.353 Y125.5068 F7200 ; Move to next pattern
G1 Z0.65 F7200 ; Z hop return
G1 E0.5 F2100 ; Un-retract
SET_PRESSURE_ADVANCE ADVANCE=0.025 ; Set pressure advance
M117 PA 0.025
G1 X324.5662 Y146.72 E0.99515 F6000 ; Print pattern wall
G1 X303.353 Y167.9332 E0.99515 F6000 ; Print pattern wall
G1 E-0.5 F2100 ; Retract
G1 Z0.75 F7200 ; Z hop
G0 X303.9287 Y125.5068 F7200 ; Move to start next pattern wall
G1 Z0.65 F7200 ; Z hop return
G1 E0.5 F2100 ; Un-retract
G1 X325.1419 Y146.72 E0.99515 F6000 ; Print pattern wall
G1 X303.9287 Y167.9332 E0.99515 F6000 ; Print pattern wall
G1 E-0.5 F2100 ; Retract
G1 Z0.75 F7200 ; Z hop
G0 X304.5044 Y125.5068 F7200 ; Move to start next pattern wall
G1 Z0.65 F7200 ; Z hop return
G1 E0.5 F2100 ; Un-retract
G1 X325.7176 Y146.72 E0.99515 F6000 ; Print pattern wall
G1 X304.5044 Y167.9332 E0.99515 F6000 ; Print pattern wall
G1 E-0.5 F2100 ; Retract
G1 Z0.75 F7200 ; Z hop
G0 X306.9544 Y125.5068 F7200 ; Move to next pattern
G1 Z0.65 F7200 ; Z hop return
G1 E0.5 F2100 ; Un-retract
SET_PRESSURE_ADVANCE ADVANCE=0.03 ; Set pressure advance
M117 PA 0.03
G1 X328.1676 Y146.72 E0.99515 F6000 ; Print pattern wall
G1 X306.9544 Y167.9332 E0.99515 F6000 ; Print pattern wall
G1 E-0.5 F2100 ; Retract
G1 Z0.75 F7200 ; Z hop
G0 X307.5301 Y125.5068 F7200 ; Move to start next pattern wall
G1 Z0.65 F7200 ; Z hop return
G1 E0.5 F2100 ; Un-retract
G1 X328.7433 Y146.72 E0.99515 F6000 ; Print pattern wall
G1 X307.5301 Y167.9332 E0.99515 F6000 ; Print pattern wall
G1 E-0.5 F2100 ; Retract
G1 Z0.75 F7200 ; Z hop
G0 X308.1058 Y125.5068 F7200 ; Move to start next pattern wall
G1 Z0.65 F7200 ; Z hop return
G1 E0.5 F2100 ; Un-retract
G1 X329.319 Y146.72 E0.99515 F6000 ; Print pattern wall
G1 X308.1058 Y167.9332 E0.99515 F6000 ; Print pattern wall
G1 E-0.5 F2100 ; Retract
G1 Z0.75 F7200 ; Z hop
G0 X310.5558 Y125.5068 F7200 ; Move to next pattern
G1 Z0.65 F7200 ; Z hop return
G1 E0.5 F2100 ; Un-retract
SET_PRESSURE_ADVANCE ADVANCE=0.035 ; Set pressure advance
M117 PA 0.035
G1 X331.769 Y146.72 E0.99515 F6000 ; Print pattern wall
G1 X310.5558 Y167.9332 E0.99515 F6000 ; Print pattern wall
G1 E-0.5 F2100 ; Retract
G1 Z0.75 F7200 ; Z hop
G0 X311.1315 Y125.5068 F7200 ; Move to start next pattern wall
G1 Z0.65 F7200 ; Z hop return
G1 E0.5 F2100 ; Un-retract
G1 X332.3447 Y146.72 E0.99515 F6000 ; Print pattern wall
G1 X311.1315 Y167.9332 E0.99515 F6000 ; Print pattern wall
G1 E-0.5 F2100 ; Retract
G1 Z0.75 F7200 ; Z hop
G0 X311.7072 Y125.5068 F7200 ; Move to start next pattern wall
G1 Z0.65 F7200 ; Z hop return
G1 E0.5 F2100 ; Un-retract
G1 X332.9204 Y146.72 E0.99515 F6000 ; Print pattern wall
G1 X311.7072 Y167.9332 E0.99515 F6000 ; Print pattern wall
G1 E-0.5 F2100 ; Retract
G1 Z0.75 F7200 ; Z hop
G0 X314.1572 Y125.5068 F7200 ; Move to next pattern
G1 Z0.65 F7200 ; Z hop return
G1 E0.5 F2100 ; Un-retract
SET_PRESSURE_ADVANCE ADVANCE=0.04 ; Set pressure advance
M117 PA 0.04
G1 X335.3704 Y146.72 E0.99515 F6000 ; Print pattern wall
G1 X314.1572 Y167.9332 E0.99515 F6000 ; Print pattern wall
G1 E-0.5 F2100 ; Retract
G1 Z0.75 F7200 ; Z hop
G0 X314.7329 Y125.5068 F7200 ; Move to start next pattern wall
G1 Z0.65 F7200 ; Z hop return
G1 E0.5 F2100 ; Un-retract
G1 X335.9461 Y146.72 E0.99515 F6000 ; Print pattern wall
G1 X314.7329 Y167.9332 E0.99515 F6000 ; Print pattern wall
G1 E-0.5 F2100 ; Retract
G1 Z0.75 F7200 ; Z hop
G0 X315.3086 Y125.5068 F7200 ; Move to start next pattern wall
G1 Z0.65 F7200 ; Z hop return
G1 E0.5 F2100 ; Un-retract
G1 X336.5218 Y146.72 E0.99515 F6000 ; Print pattern wall
G1 X315.3086 Y167.9332 E0.99515 F6000 ; Print pattern wall
G1 E-0.5 F2100 ; Retract
G1 Z0.75 F7200 ; Z hop
G0 X317.7586 Y125.5068 F7200 ; Move to next pattern
G1 Z0.65 F7200 ; Z hop return
G1 E0.5 F2100 ; Un-retract
SET_PRESSURE_ADVANCE ADVANCE=0.045 ; Set pressure advance
M117 PA 0.045
G1 X338.9718 Y146.72 E0.99515 F6000 ; Print pattern wall
G1 X317.7586 Y167.9332 E0.99515 F6000 ; Print pattern wall
G1 E-0.5 F2100 ; Retract
G1 Z0.75 F7200 ; Z hop
G0 X318.3343 Y125.5068 F7200 ; Move to start next pattern wall
G1 Z0.65 F7200 ; Z hop return
G1 E0.5 F2100 ; Un-retract
G1 X339.5475 Y146.72 E0.99515 F6000 ; Print pattern wall
G1 X318.3343 Y167.9332 E0.99515 F6000 ; Print pattern wall
G1 E-0.5 F2100 ; Retract
G1 Z0.75 F7200 ; Z hop
G0 X318.91 Y125.5068 F7200 ; Move to start next pattern wall
G1 Z0.65 F7200 ; Z hop return
G1 E0.5 F2100 ; Un-retract
G1 X340.1232 Y146.72 E0.99515 F6000 ; Print pattern wall
G1 X318.91 Y167.9332 E0.99515 F6000 ; Print pattern wall
G1 E-0.5 F2100 ; Retract
G1 Z0.75 F7200 ; Z hop
G0 X321.36 Y125.5068 F7200 ; Move to next pattern
G1 Z0.65 F7200 ; Z hop return
G1 E0.5 F2100 ; Un-retract
SET_PRESSURE_ADVANCE ADVANCE=0.05 ; Set pressure advance
M117 PA 0.05
G1 X342.5732 Y146.72 E0.99515 F6000 ; Print pattern wall
G1 X321.36 Y167.9332 E0.99515 F6000 ; Print pattern wall
G1 E-0.5 F2100 ; Retract
G1 Z0.75 F7200 ; Z hop
G0 X321.9357 Y125.5068 F7200 ; Move to start next pattern wall
G1 Z0.65 F7200 ; Z hop return
G1 E0.5 F2100 ; Un-retract
G1 X343.1489 Y146.72 E0.99515 F6000 ; Print pattern wall
G1 X321.9357 Y167.9332 E0.99515 F6000 ; Print pattern wall
G1 E-0.5 F2100 ; Retract
G1 Z0.75 F7200 ; Z hop
G0 X322.5113 Y125.5068 F7200 ; Move to start next pattern wall
G1 Z0.65 F7200 ; Z hop return
G1 E0.5 F2100 ; Un-retract
G1 X343.7246 Y146.72 E0.99515 F6000 ; Print pattern wall
G1 X322.5113 Y167.9332 E0.99515 F6000 ; Print pattern wall
G1 E-0.5 F2100 ; Retract
G1 Z0.75 F7200 ; Z hop
G0 X324.9613 Y125.5068 F7200 ; Move to next pattern
G1 Z0.65 F7200 ; Z hop return
G1 E0.5 F2100 ; Un-retract
SET_PRESSURE_ADVANCE ADVANCE=0.055 ; Set pressure advance
M117 PA 0.055
G1 X346.1746 Y146.72 E0.99515 F6000 ; Print pattern wall
G1 X324.9613 Y167.9332 E0.99515 F6000 ; Print pattern wall
G1 E-0.5 F2100 ; Retract
G1 Z0.75 F7200 ; Z hop
G0 X325.537 Y125.5068 F7200 ; Move to start next pattern wall
G1 Z0.65 F7200 ; Z hop return
G1 E0.5 F2100 ; Un-retract
G1 X346.7502 Y146.72 E0.99515 F6000 ; Print pattern wall
G1 X325.537 Y167.9332 E0.99515 F6000 ; Print pattern wall
G1 E-0.5 F2100 ; Retract
G1 Z0.75 F7200 ; Z hop
G0 X326.1127 Y125.5068 F7200 ; Move to start next pattern wall
G1 Z0.65 F7200 ; Z hop return
G1 E0.5 F2100 ; Un-retract
G1 X347.3259 Y146.72 E0.99515 F6000 ; Print pattern wall
G1 X326.1127 Y167.9332 E0.99515 F6000 ; Print pattern wall
G1 E-0.5 F2100 ; Retract
G1 Z0.75 F7200 ; Z hop
G0 X328.5627 Y125.5068 F7200 ; Move to next pattern
G1 Z0.65 F7200 ; Z hop return
G1 E0.5 F2100 ; Un-retract
SET_PRESSURE_ADVANCE ADVANCE=0.06 ; Set pressure advance
M117 PA 0.06
G1 X349.7759 Y146.72 E0.99515 F6000 ; Print pattern wall
G1 X328.5627 Y167.9332 E0.99515 F6000 ; Print pattern wall
G1 E-0.5 F2100 ; Retract
G1 Z0.75 F7200 ; Z hop
G0 X329.1384 Y125.5068 F7200 ; Move to start next pattern wall
G1 Z0.65 F7200 ; Z hop return
G1 E0.5 F2100 ; Un-retract
G1 X350.3516 Y146.72 E0.99515 F6000 ; Print pattern wall
G1 X329.1384 Y167.9332 E0.99515 F6000 ; Print pattern wall
G1 E-0.5 F2100 ; Retract
G1 Z0.75 F7200 ; Z hop
G0 X329.7141 Y125.5068 F7200 ; Move to start next pattern wall
G1 Z0.65 F7200 ; Z hop return
G1 E0.5 F2100 ; Un-retract
G1 X350.9273 Y146.72 E0.99515 F6000 ; Print pattern wall
G1 X329.7141 Y167.9332 E0.99515 F6000 ; Print pattern wall
G1 E-0.5 F2100 ; Retract
G1 Z0.75 F7200 ; Z hop
G0 X332.1641 Y125.5068 F7200 ; Move to next pattern
G1 Z0.65 F7200 ; Z hop return
G1 E0.5 F2100 ; Un-retract
SET_PRESSURE_ADVANCE ADVANCE=0.065 ; Set pressure advance
M117 PA 0.065
G1 X353.3773 Y146.72 E0.99515 F6000 ; Print pattern wall
G1 X332.1641 Y167.9332 E0.99515 F6000 ; Print pattern wall
G1 E-0.5 F2100 ; Retract
G1 Z0.75 F7200 ; Z hop
G0 X332.7398 Y125.5068 F7200 ; Move to start next pattern wall
G1 Z0.65 F7200 ; Z hop return
G1 E0.5 F2100 ; Un-retract
G1 X353.953 Y146.72 E0.99515 F6000 ; Print pattern wall
G1 X332.7398 Y167.9332 E0.99515 F6000 ; Print pattern wall
G1 E-0.5 F2100 ; Retract
G1 Z0.75 F7200 ; Z hop
G0 X333.3155 Y125.5068 F7200 ; Move to start next pattern wall
G1 Z0.65 F7200 ; Z hop return
G1 E0.5 F2100 ; Un-retract
G1 X354.5287 Y146.72 E0.99515 F6000 ; Print pattern wall
G1 X333.3155 Y167.9332 E0.99515 F6000 ; Print pattern wall
G1 E-0.5 F2100 ; Retract
G1 Z0.75 F7200 ; Z hop
G0 X335.7655 Y125.5068 F7200 ; Move to next pattern
G1 Z0.65 F7200 ; Z hop return
G1 E0.5 F2100 ; Un-retract
SET_PRESSURE_ADVANCE ADVANCE=0.07 ; Set pressure advance
M117 PA 0.07
G1 X356.9787 Y146.72 E0.99515 F6000 ; Print pattern wall
G1 X335.7655 Y167.9332 E0.99515 F6000 ; Print pattern wall
G1 E-0.5 F2100 ; Retract
G1 Z0.75 F7200 ; Z hop
G0 X336.3412 Y125.5068 F7200 ; Move to start next pattern wall
G1 Z0.65 F7200 ; Z hop return
G1 E0.5 F2100 ; Un-retract
G1 X357.5544 Y146.72 E0.99515 F6000 ; Print pattern wall
G1 X336.3412 Y167.9332 E0.99515 F6000 ; Print pattern wall
G1 E-0.5 F2100 ; Retract
G1 Z0.75 F7200 ; Z hop
G0 X336.9169 Y125.5068 F7200 ; Move to start next pattern wall
G1 Z0.65 F7200 ; Z hop return
G1 E0.5 F2100 ; Un-retract
G1 X358.1301 Y146.72 E0.99515 F6000 ; Print pattern wall
G1 X336.9169 Y167.9332 E0.99515 F6000 ; Print pattern wall
G1 E-0.5 F2100 ; Retract
G1 Z0.75 F7200 ; Z hop
G0 X339.3669 Y125.5068 F7200 ; Move to next pattern
G1 Z0.65 F7200 ; Z hop return
G1 E0.5 F2100 ; Un-retract
SET_PRESSURE_ADVANCE ADVANCE=0.075 ; Set pressure advance
M117 PA 0.075
G1 X360.5801 Y146.72 E0.99515 F6000 ; Print pattern wall
G1 X339.3669 Y167.9332 E0.99515 F6000 ; Print pattern wall
G1 E-0.5 F2100 ; Retract
G1 Z0.75 F7200 ; Z hop
G0 X339.9426 Y125.5068 F7200 ; Move to start next pattern wall
G1 Z0.65 F7200 ; Z hop return
G1 E0.5 F2100 ; Un-retract
G1 X361.1558 Y146.72 E0.99515 F6000 ; Print pattern wall
G1 X339.9426 Y167.9332 E0.99515 F6000 ; Print pattern wall
G1 E-0.5 F2100 ; Retract
G1 Z0.75 F7200 ; Z hop
G0 X340.5183 Y125.5068 F7200 ; Move to start next pattern wall
G1 Z0.65 F7200 ; Z hop return
G1 E0.5 F2100 ; Un-retract
G1 X361.7315 Y146.72 E0.99515 F6000 ; Print pattern wall
G1 X340.5183 Y167.9332 E0.99515 F6000 ; Print pattern wall
G1 E-0.5 F2100 ; Retract
G1 Z0.75 F7200 ; Z hop
G0 X342.9683 Y125.5068 F7200 ; Move to next pattern
G1 Z0.65 F7200 ; Z hop return
G1 E0.5 F2100 ; Un-retract
SET_PRESSURE_ADVANCE ADVANCE=0.08 ; Set pressure advance
M117 PA 0.08
G1 X364.1815 Y146.72 E0.99515 F6000 ; Print pattern wall
G1 X342.9683 Y167.9332 E0.99515 F6000 ; Print pattern wall
G1 E-0.5 F2100 ; Retract
G1 Z0.75 F7200 ; Z hop
G0 X343.544 Y125.5068 F7200 ; Move to start next pattern wall
G1 Z0.65 F7200 ; Z hop return
G1 E0.5 F2100 ; Un-retract
G1 X364.7572 Y146.72 E0.99515 F6000 ; Print pattern wall
G1 X343.544 Y167.9332 E0.99515 F6000 ; Print pattern wall
G1 E-0.5 F2100 ; Retract
G1 Z0.75 F7200 ; Z hop
G0 X344.1197 Y125.5068 F7200 ; Move to start next pattern wall
G1 Z0.65 F7200 ; Z hop return
G1 E0.5 F2100 ; Un-retract
G1 X365.3329 Y146.72 E0.99515 F6000 ; Print pattern wall
G1 X344.1197 Y167.9332 E0.99515 F6000 ; Print pattern wall
G1 E-0.5 F2100 ; Retract
G1 Z0.75 F7200 ; Z hop
G0 X285.346 Y125.5068 F7200 ; Move back to start position
G1 Z0.65 F7200 ; Z hop return
G1 E0.5 F2100 ; Un-retract
G0 Z0.85 F7200 ; Move to layer height
SET_PRESSURE_ADVANCE ADVANCE=0 ; Set pressure advance
M117 PA 0
G1 X306.5592 Y146.72 E0.99515 F6000 ; Print pattern wall
G1 X285.346 Y167.9332 E0.99515 F6000 ; Print pattern wall
G1 E-0.5 F2100 ; Retract
G1 Z0.95 F7200 ; Z hop
G0 X285.9217 Y125.5068 F7200 ; Move to start next pattern wall
G1 Z0.85 F7200 ; Z hop return
G1 E0.5 F2100 ; Un-retract
G1 X307.1349 Y146.72 E0.99515 F6000 ; Print pattern wall
G1 X285.9217 Y167.9332 E0.99515 F6000 ; Print pattern wall
G1 E-0.5 F2100 ; Retract
G1 Z0.95 F7200 ; Z hop
G0 X286.4974 Y125.5068 F7200 ; Move to start next pattern wall
G1 Z0.85 F7200 ; Z hop return
G1 E0.5 F2100 ; Un-retract
G1 X307.7106 Y146.72 E0.99515 F6000 ; Print pattern wall
G1 X286.4974 Y167.9332 E0.99515 F6000 ; Print pattern wall
G1 E-0.5 F2100 ; Retract
G1 Z0.95 F7200 ; Z hop
G0 X288.9474 Y125.5068 F7200 ; Move to next pattern
G1 Z0.85 F7200 ; Z hop return
G1 E0.5 F2100 ; Un-retract
SET_PRESSURE_ADVANCE ADVANCE=0.005 ; Set pressure advance
M117 PA 0.005
G1 X310.1606 Y146.72 E0.99515 F6000 ; Print pattern wall
G1 X288.9474 Y167.9332 E0.99515 F6000 ; Print pattern wall
G1 E-0.5 F2100 ; Retract
G1 Z0.95 F7200 ; Z hop
G0 X289.5231 Y125.5068 F7200 ; Move to start next pattern wall
G1 Z0.85 F7200 ; Z hop return
G1 E0.5 F2100 ; Un-retract
G1 X310.7363 Y146.72 E0.99515 F6000 ; Print pattern wall
G1 X289.5231 Y167.9332 E0.99515 F6000 ; Print pattern wall
G1 E-0.5 F2100 ; Retract
G1 Z0.95 F7200 ; Z hop
G0 X290.0988 Y125.5068 F7200 ; Move to start next pattern wall
G1 Z0.85 F7200 ; Z hop return
G1 E0.5 F2100 ; Un-retract
G1 X311.312 Y146.72 E0.99515 F6000 ; Print pattern wall
G1 X290.0988 Y167.9332 E0.99515 F6000 ; Print pattern wall
G1 E-0.5 F2100 ; Retract
G1 Z0.95 F7200 ; Z hop
G0 X292.5488 Y125.5068 F7200 ; Move to next pattern
G1 Z0.85 F7200 ; Z hop return
G1 E0.5 F2100 ; Un-retract
SET_PRESSURE_ADVANCE ADVANCE=0.01 ; Set pressure advance
M117 PA 0.01
G1 X313.762 Y146.72 E0.99515 F6000 ; Print pattern wall
G1 X292.5488 Y167.9332 E0.99515 F6000 ; Print pattern wall
G1 E-0.5 F2100 ; Retract
G1 Z0.95 F7200 ; Z hop
G0 X293.1245 Y125.5068 F7200 ; Move to start next pattern wall
G1 Z0.85 F7200 ; Z hop return
G1 E0.5 F2100 ; Un-retract
G1 X314.3377 Y146.72 E0.99515 F6000 ; Print pattern wall
G1 X293.1245 Y167.9332 E0.99515 F6000 ; Print pattern wall
G1 E-0.5 F2100 ; Retract
G1 Z0.95 F7200 ; Z hop
G0 X293.7002 Y125.5068 F7200 ; Move to start next pattern wall
G1 Z0.85 F7200 ; Z hop return
G1 E0.5 F2100 ; Un-retract
G1 X314.9134 Y146.72 E0.99515 F6000 ; Print pattern wall
G1 X293.7002 Y167.9332 E0.99515 F6000 ; Print pattern wall
G1 E-0.5 F2100 ; Retract
G1 Z0.95 F7200 ; Z hop
G0 X296.1502 Y125.5068 F7200 ; Move to next pattern
G1 Z0.85 F7200 ; Z hop return
G1 E0.5 F2100 ; Un-retract
SET_PRESSURE_ADVANCE ADVANCE=0.015 ; Set pressure advance
M117 PA 0.015
G1 X317.3634 Y146.72 E0.99515 F6000 ; Print pattern wall
G1 X296.1502 Y167.9332 E0.99515 F6000 ; Print pattern wall
G1 E-0.5 F2100 ; Retract
G1 Z0.95 F7200 ; Z hop
G0 X296.7259 Y125.5068 F7200 ; Move to start next pattern wall
G1 Z0.85 F7200 ; Z hop return
G1 E0.5 F2100 ; Un-retract
G1 X317.9391 Y146.72 E0.99515 F6000 ; Print pattern wall
G1 X296.7259 Y167.9332 E0.99515 F6000 ; Print pattern wall
G1 E-0.5 F2100 ; Retract
G1 Z0.95 F7200 ; Z hop
G0 X297.3016 Y125.5068 F7200 ; Move to start next pattern wall
G1 Z0.85 F7200 ; Z hop return
G1 E0.5 F2100 ; Un-retract
G1 X318.5148 Y146.72 E0.99515 F6000 ; Print pattern wall
G1 X297.3016 Y167.9332 E0.99515 F6000 ; Print pattern wall
G1 E-0.5 F2100 ; Retract
G1 Z0.95 F7200 ; Z hop
G0 X299.7516 Y125.5068 F7200 ; Move to next pattern
G1 Z0.85 F7200 ; Z hop return
G1 E0.5 F2100 ; Un-retract
SET_PRESSURE_ADVANCE ADVANCE=0.02 ; Set pressure advance
M117 PA 0.02
G1 X320.9648 Y146.72 E0.99515 F6000 ; Print pattern wall
G1 X299.7516 Y167.9332 E0.99515 F6000 ; Print pattern wall
G1 E-0.5 F2100 ; Retract
G1 Z0.95 F7200 ; Z hop
G0 X300.3273 Y125.5068 F7200 ; Move to start next pattern wall
G1 Z0.85 F7200 ; Z hop return
G1 E0.5 F2100 ; Un-retract
G1 X321.5405 Y146.72 E0.99515 F6000 ; Print pattern wall
G1 X300.3273 Y167.9332 E0.99515 F6000 ; Print pattern wall
G1 E-0.5 F2100 ; Retract
G1 Z0.95 F7200 ; Z hop
G0 X300.903 Y125.5068 F7200 ; Move to start next pattern wall
G1 Z0.85 F7200 ; Z hop return
G1 E0.5 F2100 ; Un-retract
G1 X322.1162 Y146.72 E0.99515 F6000 ; Print pattern wall
G1 X300.903 Y167.9332 E0.99515 F6000 ; Print pattern wall
G1 E-0.5 F2100 ; Retract
G1 Z0.95 F7200 ; Z hop
G0 X303.353 Y125.5068 F7200 ; Move to next pattern
G1 Z0.85 F7200 ; Z hop return
G1 E0.5 F2100 ; Un-retract
SET_PRESSURE_ADVANCE ADVANCE=0.025 ; Set pressure advance
M117 PA 0.025
G1 X324.5662 Y146.72 E0.99515 F6000 ; Print pattern wall
G1 X303.353 Y167.9332 E0.99515 F6000 ; Print pattern wall
G1 E-0.5 F2100 ; Retract
G1 Z0.95 F7200 ; Z hop
G0 X303.9287 Y125.5068 F7200 ; Move to start next pattern wall
G1 Z0.85 F7200 ; Z hop return
G1 E0.5 F2100 ; Un-retract
G1 X325.1419 Y146.72 E0.99515 F6000 ; Print pattern wall
G1 X303.9287 Y167.9332 E0.99515 F6000 ; Print pattern wall
G1 E-0.5 F2100 ; Retract
G1 Z0.95 F7200 ; Z hop
G0 X304.5044 Y125.5068 F7200 ; Move to start next pattern wall
G1 Z0.85 F7200 ; Z hop return
G1 E0.5 F2100 ; Un-retract
G1 X325.7176 Y146.72 E0.99515 F6000 ; Print pattern wall
G1 X304.5044 Y167.9332 E0.99515 F6000 ; Print pattern wall
G1 E-0.5 F2100 ; Retract
G1 Z0.95 F7200 ; Z hop
G0 X306.9544 Y125.5068 F7200 ; Move to next pattern
G1 Z0.85 F7200 ; Z hop return
G1 E0.5 F2100 ; Un-retract
SET_PRESSURE_ADVANCE ADVANCE=0.03 ; Set pressure advance
M117 PA 0.03
G1 X328.1676 Y146.72 E0.99515 F6000 ; Print pattern wall
G1 X306.9544 Y167.9332 E0.99515 F6000 ; Print pattern wall
G1 E-0.5 F2100 ; Retract
G1 Z0.95 F7200 ; Z hop
G0 X307.5301 Y125.5068 F7200 ; Move to start next pattern wall
G1 Z0.85 F7200 ; Z hop return
G1 E0.5 F2100 ; Un-retract
G1 X328.7433 Y146.72 E0.99515 F6000 ; Print pattern wall
G1 X307.5301 Y167.9332 E0.99515 F6000 ; Print pattern wall
G1 E-0.5 F2100 ; Retract
G1 Z0.95 F7200 ; Z hop
G0 X308.1058 Y125.5068 F7200 ; Move to start next pattern wall
G1 Z0.85 F7200 ; Z hop return
G1 E0.5 F2100 ; Un-retract
G1 X329.319 Y146.72 E0.99515 F6000 ; Print pattern wall
G1 X308.1058 Y167.9332 E0.99515 F6000 ; Print pattern wall
G1 E-0.5 F2100 ; Retract
G1 Z0.95 F7200 ; Z hop
G0 X310.5558 Y125.5068 F7200 ; Move to next pattern
G1 Z0.85 F7200 ; Z hop return
G1 E0.5 F2100 ; Un-retract
SET_PRESSURE_ADVANCE ADVANCE=0.035 ; Set pressure advance
M117 PA 0.035
G1 X331.769 Y146.72 E0.99515 F6000 ; Print pattern wall
G1 X310.5558 Y167.9332 E0.99515 F6000 ; Print pattern wall
G1 E-0.5 F2100 ; Retract
G1 Z0.95 F7200 ; Z hop
G0 X311.1315 Y125.5068 F7200 ; Move to start next pattern wall
G1 Z0.85 F7200 ; Z hop return
G1 E0.5 F2100 ; Un-retract
G1 X332.3447 Y146.72 E0.99515 F6000 ; Print pattern wall
G1 X311.1315 Y167.9332 E0.99515 F6000 ; Print pattern wall
G1 E-0.5 F2100 ; Retract
G1 Z0.95 F7200 ; Z hop
G0 X311.7072 Y125.5068 F7200 ; Move to start next pattern wall
G1 Z0.85 F7200 ; Z hop return
G1 E0.5 F2100 ; Un-retract
G1 X332.9204 Y146.72 E0.99515 F6000 ; Print pattern wall
G1 X311.7072 Y167.9332 E0.99515 F6000 ; Print pattern wall
G1 E-0.5 F2100 ; Retract
G1 Z0.95 F7200 ; Z hop
G0 X314.1572 Y125.5068 F7200 ; Move to next pattern
G1 Z0.85 F7200 ; Z hop return
G1 E0.5 F2100 ; Un-retract
SET_PRESSURE_ADVANCE ADVANCE=0.04 ; Set pressure advance
M117 PA 0.04
G1 X335.3704 Y146.72 E0.99515 F6000 ; Print pattern wall
G1 X314.1572 Y167.9332 E0.99515 F6000 ; Print pattern wall
G1 E-0.5 F2100 ; Retract
G1 Z0.95 F7200 ; Z hop
G0 X314.7329 Y125.5068 F7200 ; Move to start next pattern wall
G1 Z0.85 F7200 ; Z hop return
G1 E0.5 F2100 ; Un-retract
G1 X335.9461 Y146.72 E0.99515 F6000 ; Print pattern wall
G1 X314.7329 Y167.9332 E0.99515 F6000 ; Print pattern wall
G1 E-0.5 F2100 ; Retract
G1 Z0.95 F7200 ; Z hop
G0 X315.3086 Y125.5068 F7200 ; Move to start next pattern wall
G1 Z0.85 F7200 ; Z hop return
G1 E0.5 F2100 ; Un-retract
G1 X336.5218 Y146.72 E0.99515 F6000 ; Print pattern wall
G1 X315.3086 Y167.9332 E0.99515 F6000 ; Print pattern wall
G1 E-0.5 F2100 ; Retract
G1 Z0.95 F7200 ; Z hop
G0 X317.7586 Y125.5068 F7200 ; Move to next pattern
G1 Z0.85 F7200 ; Z hop return
G1 E0.5 F2100 ; Un-retract
SET_PRESSURE_ADVANCE ADVANCE=0.045 ; Set pressure advance
M117 PA 0.045
G1 X338.9718 Y146.72 E0.99515 F6000 ; Print pattern wall
G1 X317.7586 Y167.9332 E0.99515 F6000 ; Print pattern wall
G1 E-0.5 F2100 ; Retract
G1 Z0.95 F7200 ; Z hop
G0 X318.3343 Y125.5068 F7200 ; Move to start next pattern wall
G1 Z0.85 F7200 ; Z hop return
G1 E0.5 F2100 ; Un-retract
G1 X339.5475 Y146.72 E0.99515 F6000 ; Print pattern wall
G1 X318.3343 Y167.9332 E0.99515 F6000 ; Print pattern wall
G1 E-0.5 F2100 ; Retract
G1 Z0.95 F7200 ; Z hop
G0 X318.91 Y125.5068 F7200 ; Move to start next pattern wall
G1 Z0.85 F7200 ; Z hop return
G1 E0.5 F2100 ; Un-retract
G1 X340.1232 Y146.72 E0.99515 F6000 ; Print pattern wall
G1 X318.91 Y167.9332 E0.99515 F6000 ; Print pattern wall
G1 E-0.5 F2100 ; Retract
G1 Z0.95 F7200 ; Z hop
G0 X321.36 Y125.5068 F7200 ; Move to next pattern
G1 Z0.85 F7200 ; Z hop return
G1 E0.5 F2100 ; Un-retract
SET_PRESSURE_ADVANCE ADVANCE=0.05 ; Set pressure advance
M117 PA 0.05
G1 X342.5732 Y146.72 E0.99515 F6000 ; Print pattern wall
G1 X321.36 Y167.9332 E0.99515 F6000 ; Print pattern wall
G1 E-0.5 F2100 ; Retract
G1 Z0.95 F7200 ; Z hop
G0 X321.9357 Y125.5068 F7200 ; Move to start next pattern wall
G1 Z0.85 F7200 ; Z hop return
G1 E0.5 F2100 ; Un-retract
G1 X343.1489 Y146.72 E0.99515 F6000 ; Print pattern wall
G1 X321.9357 Y167.9332 E0.99515 F6000 ; Print pattern wall
G1 E-0.5 F2100 ; Retract
G1 Z0.95 F7200 ; Z hop
G0 X322.5113 Y125.5068 F7200 ; Move to start next pattern wall
G1 Z0.85 F7200 ; Z hop return
G1 E0.5 F2100 ; Un-retract
G1 X343.7246 Y146.72 E0.99515 F6000 ; Print pattern wall
G1 X322.5113 Y167.9332 E0.99515 F6000 ; Print pattern wall
G1 E-0.5 F2100 ; Retract
G1 Z0.95 F7200 ; Z hop
G0 X324.9613 Y125.5068 F7200 ; Move to next pattern
G1 Z0.85 F7200 ; Z hop return
G1 E0.5 F2100 ; Un-retract
SET_PRESSURE_ADVANCE ADVANCE=0.055 ; Set pressure advance
M117 PA 0.055
G1 X346.1746 Y146.72 E0.99515 F6000 ; Print pattern wall
G1 X324.9613 Y167.9332 E0.99515 F6000 ; Print pattern wall
G1 E-0.5 F2100 ; Retract
G1 Z0.95 F7200 ; Z hop
G0 X325.537 Y125.5068 F7200 ; Move to start next pattern wall
G1 Z0.85 F7200 ; Z hop return
G1 E0.5 F2100 ; Un-retract
G1 X346.7502 Y146.72 E0.99515 F6000 ; Print pattern wall
G1 X325.537 Y167.9332 E0.99515 F6000 ; Print pattern wall
G1 E-0.5 F2100 ; Retract
G1 Z0.95 F7200 ; Z hop
G0 X326.1127 Y125.5068 F7200 ; Move to start next pattern wall
G1 Z0.85 F7200 ; Z hop return
G1 E0.5 F2100 ; Un-retract
G1 X347.3259 Y146.72 E0.99515 F6000 ; Print pattern wall
G1 X326.1127 Y167.9332 E0.99515 F6000 ; Print pattern wall
G1 E-0.5 F2100 ; Retract
G1 Z0.95 F7200 ; Z hop
G0 X328.5627 Y125.5068 F7200 ; Move to next pattern
G1 Z0.85 F7200 ; Z hop return
G1 E0.5 F2100 ; Un-retract
SET_PRESSURE_ADVANCE ADVANCE=0.06 ; Set pressure advance
M117 PA 0.06
G1 X349.7759 Y146.72 E0.99515 F6000 ; Print pattern wall
G1 X328.5627 Y167.9332 E0.99515 F6000 ; Print pattern wall
G1 E-0.5 F2100 ; Retract
G1 Z0.95 F7200 ; Z hop
G0 X329.1384 Y125.5068 F7200 ; Move to start next pattern wall
G1 Z0.85 F7200 ; Z hop return
G1 E0.5 F2100 ; Un-retract
G1 X350.3516 Y146.72 E0.99515 F6000 ; Print pattern wall
G1 X329.1384 Y167.9332 E0.99515 F6000 ; Print pattern wall
G1 E-0.5 F2100 ; Retract
G1 Z0.95 F7200 ; Z hop
G0 X329.7141 Y125.5068 F7200 ; Move to start next pattern wall
G1 Z0.85 F7200 ; Z hop return
G1 E0.5 F2100 ; Un-retract
G1 X350.9273 Y146.72 E0.99515 F6000 ; Print pattern wall
G1 X329.7141 Y167.9332 E0.99515 F6000 ; Print pattern wall
G1 E-0.5 F2100 ; Retract
G1 Z0.95 F7200 ; Z hop
G0 X332.1641 Y125.5068 F7200 ; Move to next pattern
G1 Z0.85 F7200 ; Z hop return
G1 E0.5 F2100 ; Un-retract
SET_PRESSURE_ADVANCE ADVANCE=0.065 ; Set pressure advance
M117 PA 0.065
G1 X353.3773 Y146.72 E0.99515 F6000 ; Print pattern wall
G1 X332.1641 Y167.9332 E0.99515 F6000 ; Print pattern wall
G1 E-0.5 F2100 ; Retract
G1 Z0.95 F7200 ; Z hop
G0 X332.7398 Y125.5068 F7200 ; Move to start next pattern wall
G1 Z0.85 F7200 ; Z hop return
G1 E0.5 F2100 ; Un-retract
G1 X353.953 Y146.72 E0.99515 F6000 ; Print pattern wall
G1 X332.7398 Y167.9332 E0.99515 F6000 ; Print pattern wall
G1 E-0.5 F2100 ; Retract
G1 Z0.95 F7200 ; Z hop
G0 X333.3155 Y125.5068 F7200 ; Move to start next pattern wall
G1 Z0.85 F7200 ; Z hop return
G1 E0.5 F2100 ; Un-retract
G1 X354.5287 Y146.72 E0.99515 F6000 ; Print pattern wall
G1 X333.3155 Y167.9332 E0.99515 F6000 ; Print pattern wall
G1 E-0.5 F2100 ; Retract
G1 Z0.95 F7200 ; Z hop
G0 X335.7655 Y125.5068 F7200 ; Move to next pattern
G1 Z0.85 F7200 ; Z hop return
G1 E0.5 F2100 ; Un-retract
SET_PRESSURE_ADVANCE ADVANCE=0.07 ; Set pressure advance
M117 PA 0.07
G1 X356.9787 Y146.72 E0.99515 F6000 ; Print pattern wall
G1 X335.7655 Y167.9332 E0.99515 F6000 ; Print pattern wall
G1 E-0.5 F2100 ; Retract
G1 Z0.95 F7200 ; Z hop
G0 X336.3412 Y125.5068 F7200 ; Move to start next pattern wall
G1 Z0.85 F7200 ; Z hop return
G1 E0.5 F2100 ; Un-retract
G1 X357.5544 Y146.72 E0.99515 F6000 ; Print pattern wall
G1 X336.3412 Y167.9332 E0.99515 F6000 ; Print pattern wall
G1 E-0.5 F2100 ; Retract
G1 Z0.95 F7200 ; Z hop
G0 X336.9169 Y125.5068 F7200 ; Move to start next pattern wall
G1 Z0.85 F7200 ; Z hop return
G1 E0.5 F2100 ; Un-retract
G1 X358.1301 Y146.72 E0.99515 F6000 ; Print pattern wall
G1 X336.9169 Y167.9332 E0.99515 F6000 ; Print pattern wall
G1 E-0.5 F2100 ; Retract
G1 Z0.95 F7200 ; Z hop
G0 X339.3669 Y125.5068 F7200 ; Move to next pattern
G1 Z0.85 F7200 ; Z hop return
G1 E0.5 F2100 ; Un-retract
SET_PRESSURE_ADVANCE ADVANCE=0.075 ; Set pressure advance
M117 PA 0.075
G1 X360.5801 Y146.72 E0.99515 F6000 ; Print pattern wall
G1 X339.3669 Y167.9332 E0.99515 F6000 ; Print pattern wall
G1 E-0.5 F2100 ; Retract
G1 Z0.95 F7200 ; Z hop
G0 X339.9426 Y125.5068 F7200 ; Move to start next pattern wall
G1 Z0.85 F7200 ; Z hop return
G1 E0.5 F2100 ; Un-retract
G1 X361.1558 Y146.72 E0.99515 F6000 ; Print pattern wall
G1 X339.9426 Y167.9332 E0.99515 F6000 ; Print pattern wall
G1 E-0.5 F2100 ; Retract
G1 Z0.95 F7200 ; Z hop
G0 X340.5183 Y125.5068 F7200 ; Move to start next pattern wall
G1 Z0.85 F7200 ; Z hop return
G1 E0.5 F2100 ; Un-retract
G1 X361.7315 Y146.72 E0.99515 F6000 ; Print pattern wall
G1 X340.5183 Y167.9332 E0.99515 F6000 ; Print pattern wall
G1 E-0.5 F2100 ; Retract
G1 Z0.95 F7200 ; Z hop
G0 X342.9683 Y125.5068 F7200 ; Move to next pattern
G1 Z0.85 F7200 ; Z hop return
G1 E0.5 F2100 ; Un-retract
SET_PRESSURE_ADVANCE ADVANCE=0.08 ; Set pressure advance
M117 PA 0.08
G1 X364.1815 Y146.72 E0.99515 F6000 ; Print pattern wall
G1 X342.9683 Y167.9332 E0.99515 F6000 ; Print pattern wall
G1 E-0.5 F2100 ; Retract
G1 Z0.95 F7200 ; Z hop
G0 X343.544 Y125.5068 F7200 ; Move to start next pattern wall
G1 Z0.85 F7200 ; Z hop return
G1 E0.5 F2100 ; Un-retract
G1 X364.7572 Y146.72 E0.99515 F6000 ; Print pattern wall
G1 X343.544 Y167.9332 E0.99515 F6000 ; Print pattern wall
G1 E-0.5 F2100 ; Retract
G1 Z0.95 F7200 ; Z hop
G0 X344.1197 Y125.5068 F7200 ; Move to start next pattern wall
G1 Z0.85 F7200 ; Z hop return
G1 E0.5 F2100 ; Un-retract
G1 X365.3329 Y146.72 E0.99515 F6000 ; Print pattern wall
G1 X344.1197 Y167.9332 E0.99515 F6000 ; Print pattern wall
SET_PRESSURE_ADVANCE ADVANCE=0 ; Set pressure advance back to start value
M117 PA 0
G1 E-0.5 F2100 ; Retract
G1 Z0.95 F7200 ; Z hop
G0 Z5.85 F7200 ; Z raise
M104 S0 ; Turn off hotend
M140 S0 ; Turn off bed
M107    ; Turn off fan
;
; End G-code
;
PRINT_END ; End macro. Change name to match yours
;
; FINISH
;
